%
(NameplateJanke)
(T1  D=0.125 CR=0 - ZMIN=-0.1331 - flat end mill)
N0 G90
N1 G17
(Adaptive1)
N2 T1 M6
N3 S10000 M3
N5 G0 X2.2912 Y3.2928
N6 G1 Z0.5906 F30
N7 Z0.1969
N8 Z0.0716
N9 Z0.0591
N10 G3 X2.3654 Y3.3855 Z0.0526 I0.0371 J0.0464
N11 X2.2912 Y3.2928 Z0.0461 I-0.0371 J-0.0464
N12 X2.3654 Y3.3855 Z0.0396 I0.0371 J0.0464
N13 X2.2912 Y3.2928 Z0.0331 I-0.0371 J-0.0464
N14 X2.3654 Y3.3855 Z0.0265 I0.0371 J0.0464
N15 X2.2912 Y3.2928 Z0.02 I-0.0371 J-0.0464
N16 X2.3654 Y3.3855 Z0.0135 I0.0371 J0.0464
N17 X2.2912 Y3.2928 Z0.007 I-0.0371 J-0.0464
N18 X2.3654 Y3.3855 Z0.0005 I0.0371 J0.0464
N19 X2.2912 Y3.2928 Z-0.006 I-0.0371 J-0.0464
N20 X2.3654 Y3.3855 Z-0.0125 I0.0371 J0.0464
N21 X2.2912 Y3.2928 Z-0.019 I-0.0371 J-0.0464
N22 X2.3654 Y3.3855 Z-0.0256 I0.0371 J0.0464
N23 X2.2912 Y3.2928 Z-0.0321 I-0.0371 J-0.0464
N24 X2.3654 Y3.3855 Z-0.0386 I0.0371 J0.0464
N25 X2.2912 Y3.2928 Z-0.0451 I-0.0371 J-0.0464
N26 X2.3654 Y3.3855 Z-0.0516 I0.0371 J0.0464
N27 X2.2912 Y3.2928 Z-0.0581 I-0.0371 J-0.0464
N28 X2.3654 Y3.3855 Z-0.0646 I0.0371 J0.0464
N29 X2.2912 Y3.2928 Z-0.0712 I-0.0371 J-0.0464
N30 X2.3654 Y3.3855 Z-0.0777 I0.0371 J0.0464
N31 X2.2912 Y3.2928 Z-0.0842 I-0.0371 J-0.0464
N32 X2.3654 Y3.3855 Z-0.0907 I0.0371 J0.0464
N33 X2.2912 Y3.2928 Z-0.0972 I-0.0371 J-0.0464
N34 X2.3877 Y3.3392 Z-0.1019 I0.0371 J0.0464
N35 X2.269 I-0.0594 J0
N36 X2.3877 I0.0594 J0
N37 G1 X2.3884 Y3.3644
N38 X2.3929 Y3.3762
N39 X2.3987 Y3.3875
N40 X2.4114 Y3.4016
N41 X2.4163 Y3.4094
N42 X2.4184 Y3.4183
N43 X2.4176 Y3.4274
N44 X2.4138 Y3.4358
N45 X2.4076 Y3.4425
N46 X2.3995 Y3.4468
N47 X2.3905 Y3.4483
N48 G3 X2.3888 Y3.4482 I0.0004 J-0.0125
N49 G1 X2.3856 Y3.4477
N50 X2.3166 Y3.4389
N51 G2 X2.3038 Y3.4457 I-0.0016 J0.0124
N52 G3 X2.2997 Y3.4483 I-0.0043 J-0.0021
N53 G1 X0.0403
N54 X0.0346 Y3.4479
N55 X0.0288 Y3.4474
N56 X0.0231 Y3.4462
N57 X0.0174 Y3.4443
N58 X0.0145 Y3.443
N59 X0.0116 Y3.4417
N60 X0.0059 Y3.4384
N61 X0.0001 Y3.4344
N62 X-0.003 Y3.4316
N63 X-0.0056 Y3.4291
N64 X-0.0086 Y3.4258
N65 X-0.0114 Y3.4223
N66 X-0.0129 Y3.4201
N67 X-0.0161 Y3.4143
N68 X-0.0171 Y3.4123
N69 X-0.0188 Y3.4086
N70 X-0.0207 Y3.4029
N71 X-0.0221 Y3.3971
N72 X-0.0229 Y3.3914
N73 X-0.0231 Y3.3856
N74 Y0.0395
N75 X-0.0229 Y0.0337
N76 X-0.0221 Y0.0281
N77 X-0.0207 Y0.0223
N78 X-0.0188 Y0.0166
N79 X-0.0171 Y0.0129
N80 X-0.0161 Y0.0109
N81 X-0.0129 Y0.0051
N82 X-0.0114 Y0.0029
N83 X-0.0086 Y-0.0006
N84 X-0.0056 Y-0.0039
N85 X-0.003 Y-0.0064
N86 X0.0001 Y-0.0092
N87 X0.0059 Y-0.0132
N88 X0.0116 Y-0.0165
N89 X0.0145 Y-0.0178
N90 X0.0174 Y-0.0191
N91 X0.0231 Y-0.021
N92 X0.0288 Y-0.0222
N93 X0.0346 Y-0.0227
N94 X0.0403 Y-0.0231
N95 X2.4422
N96 X2.4436
N97 X2.4451 Y-0.0229
N98 X2.4465 Y-0.0226
N99 X2.4477 Y-0.022
N100 X2.4455 Y-0.0166
N101 X2.4418 Y-0.0119
N102 X2.4375 Y-0.0078
N103 X2.4329 Y-0.0042
N104 X2.427 Y-0.0005
N105 X2.4196 Y0.0035
N106 X2.4099 Y0.0077
N107 X2.397 Y0.0121
N108 X2.3789 Y0.0167
N109 X2.354 Y0.021
N110 X2.3288 Y0.0234
N111 X2.3036 Y0.0249
N112 X2.2783 Y0.0257
N113 X2.253 Y0.0262
N114 X2.2278 Y0.0265
N115 X2.2025 Y0.0266
N116 X2.1772 Y0.0267
N117 X2.1266 Y0.0268
N118 X1.9496 Y0.0269
N119 X0.4832
N120 X0.0977
N121 X0.0914 Y0.0279
N122 X0.0797 Y0.0327
N123 X0.0698 Y0.0405
N124 X0.0533 Y0.0597
N125 X0.0429 Y0.0827
N126 X0.0364 Y0.1071
N127 X0.0325 Y0.1321
N128 X0.0302 Y0.1573
N129 X0.0288 Y0.1825
N130 X0.028 Y0.2078
N131 X0.0276 Y0.2331
N132 X0.0273 Y0.2584
N133 X0.0271 Y0.2837
N134 X0.027 Y0.3089
N135 X0.0269 Y0.3595
N136 Y0.5365
N137 Y1.5984
N138 Y3.3302
N139 X0.0303 Y3.3424
N140 X0.0374 Y3.3528
N141 X0.0558 Y3.3702
N142 X0.0785 Y3.3813
N143 X0.1029 Y3.3881
N144 X0.1278 Y3.3923
N145 X0.153 Y3.3947
N146 X0.1782 Y3.3962
N147 X0.2035 Y3.3971
N148 X0.2288 Y3.3976
N149 X0.254 Y3.3979
N150 X0.2793 Y3.3981
N151 X0.3046 Y3.3982
N152 X0.3552 Y3.3983
N153 X0.5322
N154 X2.1566
N155 X2.1628 Y3.397
N156 X2.1685 Y3.3943
N157 X2.1785 Y3.3866
N158 X2.1942 Y3.3668
N159 X2.2057 Y3.3443
N160 X2.2163 Y3.3213
N161 X2.2223 Y3.3102
N162 X2.2298 Y3.298
N163 X2.2371 Y3.2881
N164 X2.2444 Y3.2796
N165 X2.2518 Y3.2722
N166 X2.2594 Y3.2658
N167 X2.2672 Y3.2603
N168 X2.2751 Y3.2556
N169 X2.2831 Y3.2517
N170 X2.2912 Y3.2485
N171 X2.2994 Y3.246
N172 X2.3076 Y3.2441
N173 X2.3158 Y3.243
N174 X2.324 Y3.2426
N175 X2.3322 Y3.2428
N176 X2.3402 Y3.2436
N177 X2.348 Y3.2451
N178 X2.3557 Y3.2472
N179 X2.3632 Y3.2499
N180 X2.3703 Y3.2531
N181 X2.3772 Y3.2569
N182 X2.3837 Y3.2612
N183 X2.3898 Y3.2661
N184 X2.3955 Y3.2713
N185 X2.4008 Y3.2771
N186 X2.4055 Y3.2832
N187 X2.4098 Y3.2896
N188 X2.414 Y3.2973
N189 X2.4243 Y3.3204
N190 X2.434 Y3.3384
N191 X2.4359 Y3.3428
N192 X2.4371 Y3.3474
N193 X2.4375 Y3.3522
N194 Y3.3856
N195 X2.4379 Y3.3914
N196 X2.4387 Y3.3971
N197 X2.44 Y3.4029
N198 X2.4419 Y3.4086
N199 X2.4422 Y3.4094
N200 X2.4445 Y3.4143
N201 X2.4479 Y3.4202
N202 X2.452 Y3.4258
N203 X2.4537 Y3.4279
N204 X2.4547 Y3.4297
N205 X2.4554 Y3.4316
N206 X2.4558 Y3.433
N207 X2.4559 Y3.4344
N208 X2.4556 Y3.4359 Z-0.1016
N209 X2.4553 Y3.4372 Z-0.1009
N210 X2.455 Y3.4383 Z-0.0998
N211 X2.4549 Y3.4389 Z-0.0985
N212 X2.4548 Y3.4392 Z-0.097
N213 Z0.1969
N214 G0 X2.4425 Y-0.0197
N215 G1 Z-0.0106 F30
N216 Z-0.0231
N217 Z-0.1019
N218 G3 X2.4465 Y-0.0226 I0.0033 J0.0005
N219 G1 X2.4479 Y-0.022
N220 X2.4492 Y-0.0213
N221 X2.4505 Y-0.0204
N222 X2.4519 Y-0.0191
N223 X2.4531 Y-0.0178
N224 X2.4537 Y-0.0171
N225 X2.4544 Y-0.0159
N226 X2.455 Y-0.0146
N227 X2.4555 Y-0.0134
N228 X2.4558 Y-0.0121
N229 X2.4559 Y-0.0107
N230 Y-0.0092
N231 X2.4558 Y-0.0078
N232 X2.4554 Y-0.0064
N233 X2.4547 Y-0.0045
N234 X2.4537 Y-0.0027
N235 X2.452 Y-0.0006
N236 X2.4478 Y0.0051
N237 X2.4445 Y0.0109
N238 X2.4416 Y0.016
N239 X2.438 Y0.0207
N240 X2.4335 Y0.0256
N241 X2.428 Y0.0308
N242 X2.4215 Y0.0359
N243 X2.413 Y0.0416
N244 X2.4033 Y0.047
N245 X2.391 Y0.0527
N246 X2.3757 Y0.0582
N247 X2.3553 Y0.0638
N248 X2.3305 Y0.0686
N249 X2.3054 Y0.0716
N250 X2.2802 Y0.0736
N251 X2.2549 Y0.0748
N252 X2.2297 Y0.0756
N253 X2.2044 Y0.0761
N254 X2.1791 Y0.0764
N255 X2.1538 Y0.0766
N256 X2.1286 Y0.0767
N257 X2.078 Y0.0768
N258 X1.9516 Y0.0769
N259 X0.4852
N260 X0.1565
N261 X0.1444 Y0.0805
N262 X0.1334 Y0.0867
N263 X0.1142 Y0.1032
N264 X0.1009 Y0.1247
N265 X0.0921 Y0.1484
N266 X0.0864 Y0.173
N267 X0.0828 Y0.1981
N268 X0.0805 Y0.2233
N269 X0.0791 Y0.2485
N270 X0.0783 Y0.2738
N271 X0.0777 Y0.299
N272 X0.0774 Y0.3243
N273 X0.0772 Y0.3496
N274 X0.0771 Y0.3749
N275 X0.0769 Y0.4255
N276 Y0.5519
N277 Y1.6896
N278 Y3.2571
N279 X0.0773 Y3.2698
N280 X0.0811 Y3.2818
N281 X0.0875 Y3.2927
N282 X0.1042 Y3.3117
N283 X0.1258 Y3.3248
N284 X0.1496 Y3.3334
N285 X0.1743 Y3.339
N286 X0.1993 Y3.3425
N287 X0.2245 Y3.3448
N288 X0.2497 Y3.3461
N289 X0.275 Y3.347
N290 X0.3003 Y3.3475
N291 X0.3256 Y3.3478
N292 X0.3508 Y3.348
N293 X0.3761 Y3.3481
N294 X0.4267 Y3.3483
N295 X0.452
N296 X0.6795
N297 X2.0954
N298 X2.1193 Y3.3403
N299 X2.1394 Y3.325
N300 X2.1568 Y3.3066
N301 X2.173 Y3.2872
N302 X2.1894 Y3.2679
N303 X2.2041 Y3.2527
N304 X2.2155 Y3.2425
N305 X2.2213 Y3.2386
N306 X2.2279 Y3.2361
N307 X2.2348 Y3.2352
N308 X2.2755
N309 X2.2813
N310 X2.2985 Y3.2341
N311 X2.3043 Y3.2326
N312 X2.31 Y3.2306
N313 X2.3158 Y3.2279
N314 X2.3207 Y3.2249
N315 X2.3259 Y3.2221
N316 X2.3314 Y3.2201
N317 X2.3372 Y3.2186
N318 X2.343 Y3.2176
N319 X2.3493 Y3.217
N320 X2.3558 Y3.2169
N321 X2.3628 Y3.2174
N322 X2.3702 Y3.2186
N323 X2.3778 Y3.2204
N324 X2.3854 Y3.2229
N325 X2.3932 Y3.2261
N326 X2.4009 Y3.23
N327 X2.4086 Y3.2348
N328 X2.4163 Y3.2404
N329 X2.4238 Y3.2469
N330 X2.4292 Y3.2524
N331 X2.4337 Y3.2584
N332 X2.4365 Y3.2654
N333 X2.4375 Y3.2728
N334 Y3.3522
N335 G3 X2.4154 Y3.3598 I-0.0125 J-0.0004
N336 G1 X2.318 Y3.2434
N337 G3 X2.3207 Y3.2249 I0.0096 J-0.008
N338 G1 X2.3215 Y3.2245
N339 X2.3273 Y3.2203
N340 X2.3299 Y3.218
N341 X2.3375 Y3.2089
N342 X2.3415 Y3.2045
N343 X2.3462 Y3.2009
N344 X2.3513 Y3.198
N345 X2.3568 Y3.1957
N346 X2.3624 Y3.194
N347 X2.3682 Y3.1929
N348 X2.3742 Y3.1922
N349 X2.3808 Y3.192
N350 X2.3877 Y3.1923
N351 X2.3952 Y3.1932
N352 X2.4031 Y3.1949
N353 X2.4112 Y3.1973
N354 X2.4191 Y3.2003
N355 X2.421 Y3.2012
N356 X2.4278 Y3.2058
N357 X2.433 Y3.212
N358 X2.4364 Y3.2195
N359 X2.4375 Y3.2275
N360 Y3.2728
N361 G3 X2.4177 Y3.2825 I-0.0125 J-0.0004
N362 G1 X2.3401 Y3.2267
N363 G3 X2.3375 Y3.2089 I0.0073 J-0.0101
N364 G1 X2.3388 Y3.2074
N365 X2.3392 Y3.2067
N366 X2.3458 Y3.1932
N367 X2.3464 Y3.1919
N368 X2.3488 Y3.1865
N369 X2.3523 Y3.1817
N370 X2.3565 Y3.1775
N371 X2.3612 Y3.174
N372 X2.3663 Y3.1709
N373 X2.3716 Y3.1685
N374 X2.3772 Y3.1665
N375 X2.383 Y3.1649
N376 X2.3894 Y3.1638
N377 X2.3953 Y3.1632
N378 X2.4017 Y3.1631
N379 X2.4079 Y3.1635
N380 X2.4137 Y3.1644
N381 X2.415 Y3.1647
N382 X2.4223 Y3.1675
N383 X2.4286 Y3.1721
N384 X2.4334 Y3.1782
N385 X2.4365 Y3.1853
N386 X2.4375 Y3.1931
N387 Y3.2275
N388 G3 X2.4195 Y3.2383 I-0.0125 J-0.0004
N389 G1 X2.3531 Y3.2059
N390 G3 X2.3464 Y3.1919 I0.0055 J-0.0112
N391 G1 X2.3468 Y3.1905
N392 X2.3481 Y3.1848
N393 X2.3489 Y3.179
N394 X2.3493 Y3.1745
N395 X2.35 Y3.1686
N396 X2.352 Y3.163
N397 X2.3549 Y3.1579
N398 X2.3585 Y3.1532
N399 X2.3626 Y3.149
N400 X2.3672 Y3.1453
N401 X2.3721 Y3.142
N402 X2.3774 Y3.1392
N403 X2.3828 Y3.1369
N404 X2.3884 Y3.1351
N405 X2.3942 Y3.1338
N406 X2.4 Y3.133
N407 X2.4059 Y3.1328
N408 X2.4118 Y3.1331
N409 X2.4125 Y3.1332
N410 X2.4204 Y3.1355
N411 X2.4274 Y3.14
N412 X2.4329 Y3.1463
N413 X2.4363 Y3.1538
N414 X2.4375 Y3.162
N415 Y3.1931
N416 G3 X2.4216 Y3.2047 I-0.0125 J-0.0004
N417 G1 X2.3584 Y3.187
N418 G3 X2.3493 Y3.1745 I0.0034 J-0.012
N419 G1 X2.3494 Y3.1733
N420 Y3.1503
N421 X2.3497 Y3.1444
N422 X2.3511 Y3.1387
N423 X2.3534 Y3.1333
N424 X2.3565 Y3.1282
N425 X2.3601 Y3.1235
N426 X2.3642 Y3.1193
N427 X2.3687 Y3.1155
N428 X2.3736 Y3.1121
N429 X2.3787 Y3.1092
N430 X2.3841 Y3.1069
N431 X2.3897 Y3.105
N432 X2.3955 Y3.1036
N433 X2.4013 Y3.1028
N434 X2.4072 Y3.1026
N435 X2.4099 Y3.1027
N436 X2.4185 Y3.1045
N437 X2.4262 Y3.1088
N438 X2.4323 Y3.1152
N439 X2.4362 Y3.1231
N440 X2.4375 Y3.1319
N441 Y3.162
N442 G3 X2.4227 Y3.1739 I-0.0125 J-0.0004
N443 G1 X2.3596 Y3.1622
N444 G3 X2.3494 Y3.1503 I0.0023 J-0.0123
N445 G1 Y3.1216
N446 X2.3497 Y3.1157
N447 X2.351 Y3.11
N448 X2.3532 Y3.1045
N449 X2.3561 Y3.0993
N450 X2.3596 Y3.0946
N451 X2.3636 Y3.0902
N452 X2.368 Y3.0863
N453 X2.3728 Y3.0828
N454 X2.3778 Y3.0798
N455 X2.3832 Y3.0773
N456 X2.3887 Y3.0753
N457 X2.3945 Y3.0738
N458 X2.4003 Y3.073
N459 X2.4062 Y3.0726
N460 X2.4121 Y3.0728
N461 X2.4124
N462 X2.4204 Y3.0751
N463 X2.4274 Y3.0796
N464 X2.4328 Y3.0859
N465 X2.4363 Y3.0935
N466 X2.4375 Y3.1017
N467 Y3.1319
N468 G3 X2.423 Y3.1438 I-0.0125 J-0.0004
N469 G1 X2.3599 Y3.1335
N470 G3 X2.3494 Y3.1216 I0.002 J-0.0123
N471 G1 Y3.0912
N472 X2.3497 Y3.0853
N473 X2.3511 Y3.0796
N474 X2.3534 Y3.0741
N475 X2.3563 Y3.069
N476 X2.3598 Y3.0643
N477 X2.3639 Y3.0599
N478 X2.3683 Y3.0561
N479 X2.3731 Y3.0526
N480 X2.3782 Y3.0496
N481 X2.3836 Y3.0471
N482 X2.3891 Y3.0452
N483 X2.3949 Y3.0437
N484 X2.4007 Y3.0428
N485 X2.4066 Y3.0425
N486 X2.4095 Y3.0426
N487 X2.4182 Y3.0443
N488 X2.426 Y3.0486
N489 X2.4322 Y3.055
N490 X2.4361 Y3.0629
N491 X2.4375 Y3.0717
N492 Y3.1017
N493 G3 X2.423 Y3.1136 I-0.0125 J-0.0004
N494 G1 X2.3598 Y3.1031
N495 G3 X2.3494 Y3.0912 I0.0021 J-0.0123
N496 G1 Y3.0611
N497 X2.3497 Y3.0552
N498 X2.3511 Y3.0495
N499 X2.3534 Y3.044
N500 X2.3563 Y3.0389
N501 X2.3599 Y3.0342
N502 X2.3639 Y3.0298
N503 X2.3683 Y3.026
N504 X2.3731 Y3.0225
N505 X2.3783 Y3.0195
N506 X2.3836 Y3.0171
N507 X2.3892 Y3.0151
N508 X2.3949 Y3.0137
N509 X2.4008 Y3.0128
N510 X2.4067 Y3.0125
N511 X2.4126 Y3.0127
N512 X2.4205 Y3.0151
N513 X2.4275 Y3.0196
N514 X2.4329 Y3.0259
N515 X2.4363 Y3.0334
N516 X2.4375 Y3.0416
N517 Y3.0717
N518 G3 X2.4229 Y3.0836 I-0.0125 J-0.0004
N519 G1 X2.3598 Y3.073
N520 G3 X2.3494 Y3.0611 I0.0021 J-0.0123
N521 G1 Y3.0324
N522 X2.3497 Y3.0265
N523 X2.3509 Y3.0207
N524 X2.3529 Y3.0152
N525 X2.3557 Y3.01
N526 X2.3592 Y3.0051
N527 X2.3631 Y3.0007
N528 X2.3675 Y2.9968
N529 X2.3722 Y2.9932
N530 X2.3772 Y2.9901
N531 X2.3825 Y2.9875
N532 X2.388 Y2.9854
N533 X2.3937 Y2.9839
N534 X2.3995 Y2.9829
N535 X2.4054 Y2.9824
N536 X2.4113 Y2.9825
N537 X2.4118 Y2.9826
N538 X2.42 Y2.9848
N539 X2.4271 Y2.9893
N540 X2.4327 Y2.9956
N541 X2.4363 Y3.0032
N542 X2.4375 Y3.0116
N543 Y3.0416
N544 G3 X2.4232 Y3.0535 I-0.0125 J-0.0004
N545 G1 X2.3601 Y3.0443
N546 G3 X2.3494 Y3.0324 I0.0018 J-0.0124
N547 G1 Y3.0011
N548 X2.3497 Y2.9952
N549 X2.3511 Y2.9895
N550 X2.3534 Y2.984
N551 X2.3563 Y2.9789
N552 X2.3598 Y2.9742
N553 X2.3639 Y2.9698
N554 X2.3683 Y2.9659
N555 X2.3731 Y2.9625
N556 X2.3782 Y2.9595
N557 X2.3835 Y2.957
N558 X2.3891 Y2.955
N559 X2.3948 Y2.9535
N560 X2.4007 Y2.9527
N561 X2.4066 Y2.9523
N562 X2.4125 Y2.9526
N563 X2.4204 Y2.9549
N564 X2.4274 Y2.9594
N565 X2.4329 Y2.9657
N566 X2.4363 Y2.9732
N567 X2.4375 Y2.9814
N568 Y3.0116
N569 G3 X2.423 Y3.0235 I-0.0125 J-0.0004
N570 G1 X2.3599 Y3.013
N571 G3 X2.3494 Y3.0011 I0.002 J-0.0123
N572 G1 Y2.9724
N573 X2.3497 Y2.9665
N574 X2.3509 Y2.9607
N575 X2.3529 Y2.9552
N576 X2.3557 Y2.95
N577 X2.3591 Y2.9451
N578 X2.363 Y2.9407
N579 X2.3674 Y2.9367
N580 X2.3721 Y2.9332
N581 X2.3771 Y2.9301
N582 X2.3824 Y2.9274
N583 X2.3879 Y2.9253
N584 X2.3936 Y2.9238
N585 X2.3994 Y2.9227
N586 X2.4053 Y2.9223
N587 X2.4112 Y2.9224
N588 X2.4117 Y2.9225
N589 X2.4199 Y2.9246
N590 X2.4271 Y2.9291
N591 X2.4327 Y2.9354
N592 X2.4363 Y2.9431
N593 X2.4375 Y2.9514
N594 Y2.9814
N595 G3 X2.4232 Y2.9934 I-0.0125 J-0.0004
N596 G1 X2.3601 Y2.9843
N597 G3 X2.3494 Y2.9724 I0.0018 J-0.0124
N598 G1 Y2.9406
N599 X2.3497 Y2.9347
N600 X2.3512 Y2.9289
N601 X2.3535 Y2.9235
N602 X2.3565 Y2.9184
N603 X2.3601 Y2.9137
N604 X2.3641 Y2.9094
N605 X2.3686 Y2.9055
N606 X2.3734 Y2.9021
N607 X2.3785 Y2.8992
N608 X2.3839 Y2.8967
N609 X2.3894 Y2.8948
N610 X2.3952 Y2.8933
N611 X2.401 Y2.8925
N612 X2.4069 Y2.8922
N613 X2.4096 Y2.8923
N614 X2.4183 Y2.894
N615 X2.4261 Y2.8983
N616 X2.4322 Y2.9047
N617 X2.4362 Y2.9127
N618 X2.4375 Y2.9214
N619 Y2.9514
N620 G3 X2.4229 Y2.9633 I-0.0125 J-0.0004
N621 G1 X2.3598 Y2.9524
N622 G3 X2.3494 Y2.9406 I0.0021 J-0.0123
N623 G1 Y2.9119
N624 X2.3497 Y2.906
N625 X2.3509 Y2.9002
N626 X2.353 Y2.8947
N627 X2.3559 Y2.8895
N628 X2.3593 Y2.8847
N629 X2.3632 Y2.8803
N630 X2.3676 Y2.8763
N631 X2.3724 Y2.8728
N632 X2.3774 Y2.8697
N633 X2.3827 Y2.8672
N634 X2.3883 Y2.8651
N635 X2.394 Y2.8636
N636 X2.3998 Y2.8626
N637 X2.4057 Y2.8622
N638 X2.4116 Y2.8624
N639 X2.4121
N640 X2.4202 Y2.8647
N641 X2.4273 Y2.8692
N642 X2.4328 Y2.8755
N643 X2.4363 Y2.8831
N644 X2.4375 Y2.8914
N645 Y2.9214
N646 G3 X2.4231 Y2.9334 I-0.0125 J-0.0004
N647 G1 X2.36 Y2.9238
N648 G3 X2.3494 Y2.9119 I0.0019 J-0.0124
N649 G1 Y2.8806
N650 X2.3497 Y2.8747
N651 X2.3512 Y2.869
N652 X2.3535 Y2.8635
N653 X2.3564 Y2.8584
N654 X2.36 Y2.8537
N655 X2.364 Y2.8494
N656 X2.3685 Y2.8455
N657 X2.3733 Y2.8421
N658 X2.3784 Y2.8391
N659 X2.3838 Y2.8367
N660 X2.3894 Y2.8347
N661 X2.3951 Y2.8333
N662 X2.4009 Y2.8324
N663 X2.4068 Y2.8321
N664 X2.4096 Y2.8322
N665 X2.4183 Y2.834
N666 X2.4261 Y2.8382
N667 X2.4322 Y2.8446
N668 X2.4361 Y2.8526
N669 X2.4375 Y2.8614
N670 Y2.8914
N671 G3 X2.4229 Y2.9032 I-0.0125 J-0.0004
N672 G1 X2.3598 Y2.8925
N673 G3 X2.3494 Y2.8806 I0.0021 J-0.0123
N674 G1 Y2.8519
N675 X2.3497 Y2.846
N676 X2.3509 Y2.8402
N677 X2.353 Y2.8347
N678 X2.3558 Y2.8295
N679 X2.3592 Y2.8247
N680 X2.3632 Y2.8203
N681 X2.3676 Y2.8163
N682 X2.3723 Y2.8128
N683 X2.3773 Y2.8097
N684 X2.3827 Y2.8072
N685 X2.3882 Y2.8051
N686 X2.3939 Y2.8035
N687 X2.3997 Y2.8026
N688 X2.4056 Y2.8022
N689 X2.4115 Y2.8023
N690 X2.4121 Y2.8024
N691 X2.4201 Y2.8046
N692 X2.4272 Y2.8091
N693 X2.4328 Y2.8154
N694 X2.4363 Y2.823
N695 X2.4375 Y2.8313
N696 Y2.8614
N697 G3 X2.4231 Y2.8733 I-0.0125 J-0.0004
N698 G1 X2.36 Y2.8638
N699 G3 X2.3494 Y2.8519 I0.0019 J-0.0124
N700 G1 Y2.8214
N701 X2.3497 Y2.8155
N702 X2.351 Y2.8098
N703 X2.3532 Y2.8043
N704 X2.356 Y2.7991
N705 X2.3595 Y2.7944
N706 X2.3635 Y2.79
N707 X2.3679 Y2.786
N708 X2.3726 Y2.7826
N709 X2.3777 Y2.7795
N710 X2.383 Y2.777
N711 X2.3886 Y2.7749
N712 X2.3943 Y2.7734
N713 X2.4001 Y2.7725
N714 X2.406 Y2.7721
N715 X2.4119 Y2.7723
N716 X2.4122
N717 X2.4202 Y2.7746
N718 X2.4273 Y2.779
N719 X2.4328 Y2.7853
N720 X2.4363 Y2.7929
N721 X2.4375 Y2.8012
N722 Y2.8313
N723 G3 X2.4231 Y2.8432 I-0.0125 J-0.0004
N724 G1 X2.36 Y2.8334
N725 G3 X2.3494 Y2.8214 I0.0019 J-0.0124
N726 G1 Y2.7913
N727 X2.3497 Y2.7854
N728 X2.351 Y2.7797
N729 X2.3532 Y2.7742
N730 X2.3561 Y2.769
N731 X2.3595 Y2.7642
N732 X2.3635 Y2.7599
N733 X2.3679 Y2.756
N734 X2.3727 Y2.7525
N735 X2.3777 Y2.7494
N736 X2.3831 Y2.7469
N737 X2.3886 Y2.7449
N738 X2.3943 Y2.7433
N739 X2.4002 Y2.7424
N740 X2.4061 Y2.742
N741 X2.412 Y2.7422
N742 X2.4122
N743 X2.4202 Y2.7445
N744 X2.4273 Y2.749
N745 X2.4328 Y2.7553
N746 X2.4363 Y2.7629
N747 X2.4375 Y2.7711
N748 Y2.8012
N749 G3 X2.4231 Y2.8131 I-0.0125 J-0.0004
N750 G1 X2.36 Y2.8032
N751 G3 X2.3494 Y2.7913 I0.0019 J-0.0123
N752 G1 Y2.7612
N753 X2.3497 Y2.7553
N754 X2.351 Y2.7496
N755 X2.3532 Y2.7441
N756 X2.3561 Y2.7389
N757 X2.3596 Y2.7341
N758 X2.3635 Y2.7298
N759 X2.368 Y2.7259
N760 X2.3727 Y2.7224
N761 X2.3778 Y2.7193
N762 X2.3831 Y2.7168
N763 X2.3887 Y2.7148
N764 X2.3944 Y2.7133
N765 X2.4002 Y2.7123
N766 X2.4061 Y2.712
N767 X2.4122 Y2.7122
N768 X2.4202 Y2.7144
N769 X2.4273 Y2.7189
N770 X2.4328 Y2.7252
N771 X2.4363 Y2.7328
N772 X2.4375 Y2.7411
N773 Y2.7711
N774 G3 X2.4231 Y2.7831 I-0.0125 J-0.0004
N775 G1 X2.36 Y2.7731
N776 G3 X2.3494 Y2.7612 I0.0019 J-0.0123
N777 G1 Y2.7314
N778 X2.3497 Y2.7255
N779 X2.351 Y2.7197
N780 X2.3531 Y2.7142
N781 X2.356 Y2.709
N782 X2.3594 Y2.7042
N783 X2.3634 Y2.6999
N784 X2.3678 Y2.6959
N785 X2.3726 Y2.6924
N786 X2.3776 Y2.6893
N787 X2.3829 Y2.6868
N788 X2.3885 Y2.6848
N789 X2.3942 Y2.6832
N790 X2.4 Y2.6823
N791 X2.4059 Y2.6819
N792 X2.4118 Y2.682
N793 X2.4121 Y2.6821
N794 X2.4202 Y2.6843
N795 X2.4273 Y2.6888
N796 X2.4328 Y2.6951
N797 X2.4363 Y2.7027
N798 X2.4375 Y2.711
N799 Y2.7411
N800 G3 X2.4231 Y2.753 I-0.0125 J-0.0004
N801 G1 X2.36 Y2.7433
N802 G3 X2.3494 Y2.7314 I0.0019 J-0.0124
N803 G1 Y2.7009
N804 X2.3497 Y2.695
N805 X2.3511 Y2.6893
N806 X2.3533 Y2.6838
N807 X2.3562 Y2.6786
N808 X2.3597 Y2.6739
N809 X2.3636 Y2.6695
N810 X2.3681 Y2.6656
N811 X2.3728 Y2.6621
N812 X2.3779 Y2.6591
N813 X2.3832 Y2.6566
N814 X2.3888 Y2.6546
N815 X2.3945 Y2.6531
N816 X2.4003 Y2.6522
N817 X2.4062 Y2.6518
N818 X2.4123 Y2.652
N819 X2.4203 Y2.6543
N820 X2.4273 Y2.6588
N821 X2.4328 Y2.6651
N822 X2.4363 Y2.6727
N823 X2.4375 Y2.6809
N824 Y2.711
N825 G3 X2.423 Y2.7229 I-0.0125 J-0.0004
N826 G1 X2.3599 Y2.7128
N827 G3 X2.3494 Y2.7009 I0.002 J-0.0123
N828 G1 Y2.6708
N829 X2.3497 Y2.6649
N830 X2.3511 Y2.6592
N831 X2.3533 Y2.6537
N832 X2.3562 Y2.6485
N833 X2.3597 Y2.6438
N834 X2.3637 Y2.6394
N835 X2.3681 Y2.6355
N836 X2.3729 Y2.632
N837 X2.3779 Y2.629
N838 X2.3833 Y2.6265
N839 X2.3888 Y2.6245
N840 X2.3945 Y2.623
N841 X2.4004 Y2.6221
N842 X2.4063 Y2.6217
N843 X2.4123 Y2.6219
N844 X2.4203 Y2.6242
N845 X2.4273 Y2.6287
N846 X2.4328 Y2.635
N847 X2.4363 Y2.6426
N848 X2.4375 Y2.6508
N849 Y2.6809
N850 G3 X2.423 Y2.6928 I-0.0125 J-0.0004
N851 G1 X2.3599 Y2.6827
N852 G3 X2.3494 Y2.6708 I0.002 J-0.0123
N853 G1 Y2.6421
N854 X2.3497 Y2.6362
N855 X2.3508 Y2.6304
N856 X2.3528 Y2.6248
N857 X2.3555 Y2.6196
N858 X2.3589 Y2.6148
N859 X2.3628 Y2.6103
N860 X2.3671 Y2.6063
N861 X2.3718 Y2.6027
N862 X2.3768 Y2.5996
N863 X2.3821 Y2.5969
N864 X2.3876 Y2.5948
N865 X2.3933 Y2.5932
N866 X2.3991 Y2.5922
N867 X2.405 Y2.5917
N868 X2.4109 Y2.5918
N869 X2.4116
N870 X2.4198 Y2.594
N871 X2.427 Y2.5984
N872 X2.4327 Y2.6047
N873 X2.4363 Y2.6124
N874 X2.4375 Y2.6208
N875 Y2.6508
N876 G3 X2.4233 Y2.6628 I-0.0125 J-0.0004
N877 G1 X2.3602 Y2.654
N878 G3 X2.3494 Y2.6421 I0.0017 J-0.0124
N879 G1 Y2.6108
N880 X2.3497 Y2.6049
N881 X2.351 Y2.5992
N882 X2.3532 Y2.5937
N883 X2.3561 Y2.5885
N884 X2.3596 Y2.5838
N885 X2.3636 Y2.5794
N886 X2.368 Y2.5755
N887 X2.3728 Y2.572
N888 X2.3778 Y2.569
N889 X2.3832 Y2.5664
N890 X2.3887 Y2.5644
N891 X2.3944 Y2.5629
N892 X2.4003 Y2.562
N893 X2.4061 Y2.5616
N894 X2.4121 Y2.5618
N895 X2.4123
N896 X2.4203 Y2.5641
N897 X2.4273 Y2.5686
N898 X2.4328 Y2.5749
N899 X2.4363 Y2.5825
N900 X2.4375 Y2.5907
N901 Y2.6208
N902 G3 X2.4231 Y2.6327 I-0.0125 J-0.0004
N903 G1 X2.3599 Y2.6227
N904 G3 X2.3494 Y2.6108 I0.002 J-0.0123
N905 G1 Y2.5804
N906 X2.3497 Y2.5745
N907 X2.3511 Y2.5688
N908 X2.3533 Y2.5633
N909 X2.3563 Y2.5582
N910 X2.3598 Y2.5534
N911 X2.3638 Y2.5491
N912 X2.3682 Y2.5452
N913 X2.373 Y2.5417
N914 X2.3781 Y2.5387
N915 X2.3834 Y2.5362
N916 X2.389 Y2.5342
N917 X2.3947 Y2.5327
N918 X2.4006 Y2.5319
N919 X2.4065 Y2.5315
N920 X2.4124 Y2.5317
N921 X2.4204 Y2.5341
N922 X2.4274 Y2.5385
N923 X2.4328 Y2.5448
N924 X2.4363 Y2.5524
N925 X2.4375 Y2.5606
N926 Y2.5907
N927 G3 X2.423 Y2.6026 I-0.0125 J-0.0004
N928 G1 X2.3599 Y2.5923
N929 G3 X2.3494 Y2.5804 I0.002 J-0.0123
N930 G1 Y2.5503
N931 X2.3497 Y2.5444
N932 X2.3511 Y2.5386
N933 X2.3533 Y2.5332
N934 X2.3563 Y2.528
N935 X2.3598 Y2.5233
N936 X2.3638 Y2.519
N937 X2.3682 Y2.5151
N938 X2.373 Y2.5116
N939 X2.3781 Y2.5086
N940 X2.3835 Y2.5061
N941 X2.389 Y2.5041
N942 X2.3947 Y2.5026
N943 X2.4006 Y2.5017
N944 X2.4065 Y2.5014
N945 X2.4124 Y2.5016
N946 X2.4204 Y2.504
N947 X2.4274 Y2.5084
N948 X2.4328 Y2.5147
N949 X2.4363 Y2.5223
N950 X2.4375 Y2.5305
N951 Y2.5606
N952 G3 X2.423 Y2.5725 I-0.0125 J-0.0004
N953 G1 X2.3599 Y2.5622
N954 G3 X2.3494 Y2.5503 I0.002 J-0.0123
N955 G1 Y2.5216
N956 X2.3497 Y2.5157
N957 X2.3508 Y2.5099
N958 X2.3529 Y2.5043
N959 X2.3557 Y2.4991
N960 X2.359 Y2.4943
N961 X2.3629 Y2.4899
N962 X2.3673 Y2.4859
N963 X2.372 Y2.4823
N964 X2.377 Y2.4792
N965 X2.3823 Y2.4765
N966 X2.3878 Y2.4745
N967 X2.3935 Y2.4729
N968 X2.3993 Y2.4718
N969 X2.4052 Y2.4714
N970 X2.4111 Y2.4715
N971 X2.412 Y2.4716
N972 X2.4204 Y2.4739
N973 X2.4278 Y2.4786
N974 X2.4335 Y2.4852
N975 X2.4369 Y2.4933
N976 X2.4378 Y2.502
N977 X2.4375 Y2.5075
N978 Y2.5305
N979 G3 X2.4233 Y2.5425 I-0.0125 J-0.0004
N980 G1 X2.3601 Y2.5335
N981 G3 X2.3494 Y2.5216 I0.0018 J-0.0124
N982 G1 Y2.4903
N983 X2.3497 Y2.4844
N984 X2.3511 Y2.4787
N985 X2.3533 Y2.4732
N986 X2.3562 Y2.468
N987 X2.3597 Y2.4633
N988 X2.3637 Y2.4589
N989 X2.3681 Y2.455
N990 X2.3729 Y2.4516
N991 X2.378 Y2.4485
N992 X2.3833 Y2.446
N993 X2.3889 Y2.444
N994 X2.3946 Y2.4425
N995 X2.4004 Y2.4416
N996 X2.4063 Y2.4413
N997 X2.4122 Y2.4414
N998 X2.4181 Y2.4422
N999 X2.42 Y2.4426
N1000 X2.4274 Y2.4455
N1001 X2.4337 Y2.4503
N1002 X2.4386 Y2.4565
N1003 X2.4415 Y2.4639
N1004 X2.4424 Y2.4718
N1005 X2.4411 Y2.4796
N1006 G3 X2.4387 Y2.4838 I-0.0118 J-0.0041
N1007 X2.4319 Y2.4877 I-0.0093 J-0.0083
N1008 G1 X2.3645 Y2.5021
N1009 G3 X2.3494 Y2.4903 I-0.0026 J-0.0122
N1010 G1 Y2.4616
N1011 X2.3497 Y2.4557
N1012 X2.3508 Y2.4499
N1013 X2.3528 Y2.4443
N1014 X2.3556 Y2.4391
N1015 X2.359 Y2.4343
N1016 X2.3628 Y2.4298
N1017 X2.3672 Y2.4258
N1018 X2.3719 Y2.4222
N1019 X2.3769 Y2.4191
N1020 X2.3821 Y2.4164
N1021 X2.3876 Y2.4142
N1022 X2.3933 Y2.4125
N1023 X2.399 Y2.4112
N1024 X2.4049 Y2.4105
N1025 X2.4108 Y2.4103
N1026 X2.4167 Y2.4107
N1027 X2.4225 Y2.4115
N1028 X2.4283 Y2.413
N1029 X2.4338 Y2.4149
N1030 X2.4392 Y2.4174
N1031 X2.4419 Y2.419
N1032 X2.4483 Y2.424
N1033 X2.4531 Y2.4307
N1034 X2.4558 Y2.4383
N1035 X2.4564 Y2.4464
N1036 X2.4547 Y2.4544
N1037 X2.4509 Y2.4616
N1038 G3 X2.4421 Y2.4664 I-0.0099 J-0.0077
N1039 G1 X2.363 Y2.4736
N1040 G3 X2.3494 Y2.4616 I-0.0011 J-0.0124
N1041 G1 Y2.4297
N1042 X2.3497 Y2.4238
N1043 X2.3511 Y2.4181
N1044 X2.3534 Y2.4127
N1045 X2.3563 Y2.4075
N1046 X2.3598 Y2.4028
N1047 X2.3638 Y2.3984
N1048 X2.3682 Y2.3945
N1049 X2.3729 Y2.3909
N1050 X2.378 Y2.3878
N1051 X2.3833 Y2.3851
N1052 X2.3889 Y2.3828
N1053 X2.3948 Y2.381
N1054 X2.4012 Y2.3795
N1055 X2.4077 Y2.3785
N1056 X2.4142 Y2.3781
N1057 X2.4204
N1058 X2.427 Y2.3788
N1059 X2.4331 Y2.3798
N1060 X2.4388 Y2.3813
N1061 X2.4447 Y2.3834
N1062 X2.45 Y2.3858
N1063 X2.4552 Y2.3886
N1064 X2.4601 Y2.3919
N1065 X2.4647 Y2.3956
N1066 X2.469 Y2.3997
N1067 X2.4728 Y2.4042
N1068 X2.4742 Y2.406
N1069 X2.4779 Y2.4131
N1070 X2.4796 Y2.4208
N1071 X2.4792 Y2.4288
N1072 X2.4766 Y2.4363
N1073 X2.472 Y2.4429
N1074 X2.4659 Y2.4479
N1075 G3 X2.4612 Y2.4495 I-0.0062 J-0.0109
N1076 X2.4587 I-0.0016 J-0.0124
N1077 G1 X2.3609 Y2.4418
N1078 G3 X2.3494 Y2.4297 I0.001 J-0.0125
N1079 G1 Y2.401
N1080 X2.3497 Y2.3951
N1081 X2.3508 Y2.3893
N1082 X2.3527 Y2.3838
N1083 X2.3554 Y2.3785
N1084 X2.3587 Y2.3736
N1085 X2.3624 Y2.369
N1086 X2.3666 Y2.3649
N1087 X2.3711 Y2.3611
N1088 X2.3761 Y2.3576
N1089 X2.3814 Y2.3544
N1090 X2.3874 Y2.3515
N1091 X2.3939 Y2.349
N1092 X2.4007 Y2.3469
N1093 X2.4078 Y2.3454
N1094 X2.4152 Y2.3444
N1095 X2.4227 Y2.344
N1096 X2.4304 Y2.3443
N1097 X2.4382 Y2.3451
N1098 X2.446 Y2.3466
N1099 X2.4537 Y2.3487
N1100 X2.4612 Y2.3515
N1101 X2.4681 Y2.3546
N1102 X2.4743 Y2.3581
N1103 X2.4805 Y2.3623
N1104 X2.4855 Y2.3663
N1105 X2.4902 Y2.3706
N1106 X2.4946 Y2.3755
N1107 X2.4982 Y2.3801
N1108 X2.5014 Y2.3851
N1109 X2.5043 Y2.3904
N1110 X2.5067 Y2.3958
N1111 X2.5085 Y2.4014
N1112 X2.5091 Y2.4036
N1113 X2.5098 Y2.4127
N1114 X2.5078 Y2.4216
N1115 X2.503 Y2.4294
N1116 X2.4961 Y2.4353
N1117 X2.4878 Y2.4389
N1118 G3 X2.4829 I-0.0026 J-0.0122
N1119 G1 X2.4826
N1120 X2.3593 Y2.4128
N1121 G3 X2.3494 Y2.401 I0.0026 J-0.0122
N1122 G1 Y2.3698
N1123 X2.3497 Y2.3639
N1124 X2.3508 Y2.3581
N1125 X2.3527 Y2.3525
N1126 X2.3552 Y2.3472
N1127 X2.3584 Y2.3422
N1128 X2.362 Y2.3375
N1129 X2.3661 Y2.3332
N1130 X2.3706 Y2.3291
N1131 X2.3757 Y2.3252
N1132 X2.3813 Y2.3216
N1133 X2.3877 Y2.3182
N1134 X2.3947 Y2.3152
N1135 X2.4021 Y2.3126
N1136 X2.41 Y2.3106
N1137 X2.4185 Y2.3091
N1138 X2.4275 Y2.3083
N1139 X2.4367 Y2.3082
N1140 X2.4461 Y2.3089
N1141 X2.4555 Y2.3103
N1142 X2.4649 Y2.3126
N1143 X2.474 Y2.3155
N1144 X2.4828 Y2.3192
N1145 X2.4913 Y2.3235
N1146 X2.4992 Y2.3284
N1147 X2.5067 Y2.3339
N1148 X2.5137 Y2.34
N1149 X2.5201 Y2.3465
N1150 X2.5255 Y2.3529
N1151 X2.53 Y2.3592
N1152 X2.5341 Y2.3662
N1153 X2.5371 Y2.3724
N1154 X2.5395 Y2.3783
N1155 X2.5415 Y2.3851
N1156 X2.5428 Y2.3911
N1157 X2.5436 Y2.3969
N1158 X2.5439 Y2.4033
N1159 X2.5437 Y2.4092
N1160 X2.5431 Y2.415
N1161 X2.543 Y2.4155
N1162 X2.54 Y2.4236
N1163 X2.5347 Y2.4305
N1164 X2.5277 Y2.4356
N1165 X2.5195 Y2.4383
N1166 X2.5109 Y2.4386
N1167 X2.5054 Y2.4379
N1168 X2.4996 Y2.4376
N1169 X2.4939 Y2.4379
N1170 X2.4882 Y2.4388
N1171 X2.4878 Y2.4389
N1172 G3 X2.4829 I-0.0026 J-0.0122
N1173 X2.4799 Y2.438 I0.0023 J-0.0123
N1174 G1 X2.3566 Y2.3807
N1175 G3 X2.3494 Y2.3698 I0.0053 J-0.0113
N1176 G1 Y2.3353
N1177 X2.3497 Y2.3294
N1178 X2.351 Y2.3237
N1179 X2.3531 Y2.3181
N1180 X2.3557 Y2.3129
N1181 X2.3589 Y2.3079
N1182 X2.3626 Y2.3033
N1183 X2.3666 Y2.2989
N1184 X2.3715 Y2.2944
N1185 X2.377 Y2.2902
N1186 X2.3831 Y2.2862
N1187 X2.3902 Y2.2823
N1188 X2.3979 Y2.2788
N1189 X2.4061 Y2.2759
N1190 X2.4152 Y2.2735
N1191 X2.4249 Y2.2718
N1192 X2.4352 Y2.2707
N1193 X2.4458 Y2.2705
N1194 X2.4567 Y2.2712
N1195 X2.4678 Y2.2728
N1196 X2.479 Y2.2753
N1197 X2.4901 Y2.2788
N1198 X2.5012 Y2.2832
N1199 X2.5119 Y2.2886
N1200 X2.5221 Y2.2948
N1201 X2.5316 Y2.3016
N1202 X2.5405 Y2.3092
N1203 X2.5485 Y2.3172
N1204 X2.5556 Y2.3256
N1205 X2.5619 Y2.3343
N1206 X2.5673 Y2.3432
N1207 X2.5719 Y2.3522
N1208 X2.5756 Y2.3614
N1209 X2.5785 Y2.3707
N1210 X2.5803 Y2.3788
N1211 X2.5815 Y2.3869
N1212 X2.582 Y2.3946
N1213 X2.5819 Y2.4011
N1214 X2.5812 Y2.4082
N1215 X2.58 Y2.4147
N1216 X2.5785 Y2.4204
N1217 X2.5764 Y2.4263
N1218 X2.5739 Y2.4319
N1219 X2.5711 Y2.437
N1220 X2.5708 Y2.4375
N1221 X2.5649 Y2.4439
N1222 X2.5574 Y2.4483
N1223 X2.5489 Y2.4503
N1224 X2.5403 Y2.4498
N1225 X2.5321 Y2.4467
N1226 X2.5279 Y2.4442
N1227 X2.3557 Y2.3457
N1228 G3 X2.3494 Y2.3353 I0.0062 J-0.0109
N1229 G1 Y2.3009
N1230 X2.3497 Y2.295
N1231 X2.351 Y2.2892
N1232 X2.353 Y2.2837
N1233 X2.3557 Y2.2784
N1234 X2.3588 Y2.2734
N1235 X2.3623 Y2.2687
N1236 X2.3667 Y2.2638
N1237 X2.3715 Y2.2591
N1238 X2.3773 Y2.2544
N1239 X2.384 Y2.2498
N1240 X2.3912 Y2.2456
N1241 X2.3995 Y2.2417
N1242 X2.4087 Y2.2382
N1243 X2.4186 Y2.2354
N1244 X2.4291 Y2.2332
N1245 X2.4405 Y2.2318
N1246 X2.4527 Y2.2313
N1247 X2.4655 Y2.2318
N1248 X2.4784 Y2.2334
N1249 X2.4915 Y2.236
N1250 X2.5048 Y2.2398
N1251 X2.518 Y2.2448
N1252 X2.5261 Y2.2486
N1253 X2.5324 Y2.2527
N1254 X2.5375 Y2.2581
N1255 X2.541 Y2.2647
N1256 X2.5514 Y2.2922
N1257 X2.5571 Y2.3071
N1258 X2.5593 Y2.3124
N1259 X2.5992 Y2.3985
N1260 X2.6014 Y2.4039
N1261 X2.603 Y2.4096
N1262 X2.6039 Y2.4155
N1263 X2.6043 Y2.4213
N1264 X2.604 Y2.4272
N1265 X2.6032 Y2.4331
N1266 X2.6017 Y2.4388
N1267 X2.5996 Y2.4443
N1268 X2.597 Y2.4497
N1269 X2.5939 Y2.4547
N1270 X2.5903 Y2.4593
N1271 X2.5899 Y2.4597
N1272 X2.5834 Y2.4648
N1273 X2.5757 Y2.4679
N1274 X2.5674 Y2.4687
N1275 X2.5593 Y2.4672
N1276 X2.5519 Y2.4634
N1277 X2.5459 Y2.4577
N1278 G3 X2.5438 Y2.4533 I0.0101 J-0.0074
N1279 X2.5457 Y2.4431 I0.0121 J-0.003
N1280 G1 X2.5777 Y2.397
N1281 G3 X2.5992 Y2.3985 I0.0103 J0.0071
N1282 G1 X2.6018 Y2.4042
N1283 X2.6031 Y2.4067
N1284 X2.611 Y2.4214
N1285 X2.6141 Y2.4272
N1286 X2.6167 Y2.4325
N1287 X2.6185 Y2.4381
N1288 X2.6195 Y2.4439
N1289 X2.6196 Y2.4498
N1290 X2.6188 Y2.4557
N1291 X2.6174 Y2.4614
N1292 X2.6152 Y2.4669
N1293 X2.6124 Y2.4721
N1294 X2.609 Y2.4769
N1295 X2.605 Y2.4813
N1296 X2.6006 Y2.4852
N1297 X2.6003 Y2.4854
N1298 X2.5931 Y2.489
N1299 X2.5853 Y2.4906
N1300 X2.5773 Y2.4899
N1301 X2.5698 Y2.4871
N1302 X2.5633 Y2.4824
N1303 X2.5584 Y2.4761
N1304 X2.5566 Y2.4731
N1305 X2.5532 Y2.4673
N1306 X2.5514 Y2.4646
N1307 X2.5459 Y2.4577
N1308 G3 X2.5518 Y2.4385 I0.0101 J-0.0074
N1309 G1 X2.5992 Y2.4218
N1310 G3 X2.6141 Y2.4272 I0.0041 J0.0118
N1311 G1 X2.6286 Y2.4533
N1312 X2.6312 Y2.4586
N1313 X2.6327 Y2.4643
N1314 X2.6332 Y2.4702
N1315 X2.6328 Y2.4761
N1316 X2.6317 Y2.4819
N1317 X2.6297 Y2.4874
N1318 X2.6271 Y2.4927
N1319 X2.6239 Y2.4977
N1320 X2.6201 Y2.5022
N1321 X2.6157 Y2.5062
N1322 X2.6138 Y2.5076
N1323 X2.6066 Y2.5114
N1324 X2.5987 Y2.5131
N1325 X2.5906 Y2.5126
N1326 X2.583 Y2.5098
N1327 X2.5764 Y2.505
N1328 X2.5714 Y2.4986
N1329 X2.5584 Y2.4761
N1330 G3 X2.5667 Y2.458 I0.011 J-0.0059
N1331 G1 X2.6152 Y2.4475
N1332 G3 X2.6286 Y2.4533 I0.0026 J0.0122
N1333 G1 X2.6413 Y2.4762
N1334 X2.6439 Y2.4815
N1335 X2.6454 Y2.4872
N1336 X2.646 Y2.4931
N1337 X2.6456 Y2.499
N1338 X2.6444 Y2.5048
N1339 X2.6425 Y2.5104
N1340 X2.6398 Y2.5156
N1341 X2.6365 Y2.5205
N1342 X2.6327 Y2.525
N1343 X2.6283 Y2.529
N1344 X2.6266 Y2.5302
N1345 X2.6195 Y2.534
N1346 X2.6116 Y2.5356
N1347 X2.6035 Y2.535
N1348 X2.5959 Y2.5323
N1349 X2.5893 Y2.5275
N1350 X2.5844 Y2.5211
N1351 X2.5714 Y2.4986
N1352 G3 X2.5798 Y2.4805 I0.011 J-0.0059
N1353 G1 X2.628 Y2.4704
N1354 G3 X2.6413 Y2.4762 I0.0026 J0.0122
N1355 G1 X2.6543 Y2.4997
N1356 X2.6569 Y2.505
N1357 X2.6583 Y2.5108
N1358 X2.6587 Y2.5166
N1359 X2.6582 Y2.5225
N1360 X2.6569 Y2.5283
N1361 X2.6548 Y2.5338
N1362 X2.6521 Y2.539
N1363 X2.6487 Y2.5439
N1364 X2.6448 Y2.5483
N1365 X2.6403 Y2.5522
N1366 X2.6391 Y2.553
N1367 X2.632 Y2.5566
N1368 X2.6241 Y2.5581
N1369 X2.6162 Y2.5574
N1370 X2.6087 Y2.5546
N1371 X2.6022 Y2.5498
N1372 X2.5973 Y2.5435
N1373 X2.5844 Y2.5211
N1374 G3 X2.5931 Y2.503 I0.011 J-0.0059
N1375 G1 X2.6412 Y2.4939
N1376 G3 X2.651 Y2.4961 I0.0023 J0.0123
N1377 X2.6543 Y2.4997 I-0.0074 J0.01
N1378 G1 X2.6554 Y2.5018
N1379 X2.659 Y2.5075
N1380 X2.6663 Y2.5191
N1381 X2.6693 Y2.5242
N1382 X2.6712 Y2.5298
N1383 X2.6721 Y2.5356
N1384 X2.672 Y2.5415
N1385 X2.6711 Y2.5474
N1386 X2.6695 Y2.553
N1387 X2.6671 Y2.5584
N1388 X2.664 Y2.5635
N1389 X2.6604 Y2.5681
N1390 X2.6563 Y2.5723
N1391 X2.6516 Y2.576
N1392 X2.6515 Y2.5761
N1393 X2.643 Y2.5797
N1394 X2.6338 Y2.5805
N1395 X2.6249 Y2.5784
N1396 X2.617 Y2.5736
N1397 X2.611 Y2.5666
N1398 X2.6031 Y2.5534
N1399 X2.5997 Y2.5477
N1400 X2.5973 Y2.5435
N1401 G3 X2.5959 Y2.5389 I0.011 J-0.0059
N1402 X2.6054 Y2.5255 I0.0124 J-0.0012
N1403 G1 X2.6532 Y2.5141
N1404 G3 X2.6663 Y2.5191 I0.0029 J0.0122
N1405 G1 X2.6805 Y2.5409
N1406 X2.6835 Y2.546
N1407 X2.6853 Y2.5516
N1408 X2.6862 Y2.5574
N1409 X2.6861 Y2.5633
N1410 X2.6852 Y2.5692
N1411 X2.6836 Y2.5749
N1412 X2.6812 Y2.5803
N1413 X2.6783 Y2.5854
N1414 X2.6747 Y2.5901
N1415 X2.6706 Y2.5943
N1416 X2.6689 Y2.5957
N1417 X2.662 Y2.5999
N1418 X2.6542 Y2.6021
N1419 X2.6462 Y2.602
N1420 X2.6384 Y2.5998
N1421 X2.6315 Y2.5955
N1422 X2.6261 Y2.5894
N1423 X2.6135 Y2.5706
N1424 X2.611 Y2.5666
N1425 G3 X2.6188 Y2.5483 I0.0109 J-0.0061
N1426 G1 X2.6672 Y2.536
N1427 G3 X2.6805 Y2.5409 I0.0031 J0.0121
N1428 G1 X2.695 Y2.5632
N1429 X2.698 Y2.5683
N1430 X2.6997 Y2.5739
N1431 X2.7005 Y2.5797
N1432 X2.7004 Y2.5856
N1433 X2.6995 Y2.5915
N1434 X2.6978 Y2.5971
N1435 X2.6954 Y2.6025
N1436 X2.6923 Y2.6076
N1437 X2.6887 Y2.6123
N1438 X2.6846 Y2.6165
N1439 X2.6831 Y2.6176
N1440 X2.6763 Y2.6217
N1441 X2.6685 Y2.6238
N1442 X2.6605 Y2.6237
N1443 X2.6528 Y2.6214
N1444 X2.646 Y2.6171
N1445 X2.6407 Y2.6111
N1446 X2.6261 Y2.5894
N1447 G3 X2.6244 Y2.5849 I0.0106 J-0.0066
N1448 X2.6336 Y2.5707 I0.0123 J-0.002
N1449 G1 X2.6816 Y2.5582
N1450 G3 X2.695 Y2.5632 I0.0031 J0.0121
N1451 G1 X2.7094 Y2.5853
N1452 X2.7124 Y2.5904
N1453 X2.7141 Y2.596
N1454 X2.7148 Y2.6019
N1455 X2.7147 Y2.6078
N1456 X2.7137 Y2.6136
N1457 X2.712 Y2.6193
N1458 X2.7095 Y2.6246
N1459 X2.7064 Y2.6297
N1460 X2.7028 Y2.6343
N1461 X2.6986 Y2.6385
N1462 X2.6974 Y2.6394
N1463 X2.6905 Y2.6434
N1464 X2.6828 Y2.6454
N1465 X2.6748 Y2.6452
N1466 X2.6672 Y2.6429
N1467 X2.6605 Y2.6386
N1468 X2.6552 Y2.6327
N1469 X2.6407 Y2.6111
N1470 G3 X2.639 Y2.6065 I0.0106 J-0.0066
N1471 X2.6483 Y2.5924 I0.0123 J-0.002
N1472 G1 X2.6962 Y2.5803
N1473 G3 X2.7059 Y2.5819 I0.003 J0.0121
N1474 X2.7094 Y2.5853 I-0.0067 J0.0106
N1475 G1 X2.7149 Y2.5936
N1476 X2.719 Y2.5993
N1477 X2.7232 Y2.6051
N1478 X2.7265 Y2.61
N1479 X2.7285 Y2.6156
N1480 X2.7295 Y2.6214
N1481 X2.7296 Y2.6273
N1482 X2.7289 Y2.6331
N1483 X2.7274 Y2.6389
N1484 X2.7252 Y2.6443
N1485 X2.7223 Y2.6495
N1486 X2.7188 Y2.6543
N1487 X2.7148 Y2.6586
N1488 X2.713 Y2.6602
N1489 X2.7062 Y2.6645
N1490 X2.6985 Y2.6668
N1491 X2.6904 Y2.6669
N1492 X2.6827 Y2.6648
N1493 X2.6758 Y2.6606
N1494 X2.6703 Y2.6548
N1495 X2.6663 Y2.6491
N1496 X2.6636 Y2.6453
N1497 X2.6552 Y2.6327
N1498 G3 X2.6624 Y2.614 I0.0106 J-0.0066
N1499 G1 X2.7101 Y2.6008
N1500 G3 X2.7232 Y2.6051 I0.0034 J0.012
N1501 G1 X2.7295 Y2.6136
N1502 X2.7374 Y2.624
N1503 X2.7407 Y2.6289
N1504 X2.7431 Y2.6343
N1505 X2.7445 Y2.6401
N1506 X2.7449 Y2.646
N1507 X2.7445 Y2.6518
N1508 X2.7433 Y2.6576
N1509 X2.7414 Y2.6632
N1510 X2.7389 Y2.6685
N1511 X2.7356 Y2.6735
N1512 X2.7319 Y2.6781
N1513 X2.73 Y2.6799
N1514 X2.7234 Y2.6846
N1515 X2.7158 Y2.6873
N1516 X2.7077 Y2.6878
N1517 X2.6998 Y2.6861
N1518 X2.6927 Y2.6822
N1519 X2.6869 Y2.6766
N1520 X2.6759 Y2.6625
N1521 X2.6717 Y2.6567
N1522 X2.6703 Y2.6548
N1523 G3 X2.6767 Y2.6361 I0.0105 J-0.0069
N1524 G1 X2.7237 Y2.6201
N1525 G3 X2.7336 Y2.6209 I0.004 J0.0118
N1526 X2.7374 Y2.624 I-0.0059 J0.011
N1527 G1 X2.7535 Y2.6453
N1528 X2.7569 Y2.6501
N1529 X2.7591 Y2.6556
N1530 X2.7603 Y2.6614
N1531 X2.7607 Y2.6673
N1532 X2.7602 Y2.6732
N1533 X2.759 Y2.6789
N1534 X2.757 Y2.6845
N1535 X2.7544 Y2.6898
N1536 X2.7511 Y2.6947
N1537 X2.7473 Y2.6992
N1538 X2.7458 Y2.7006
N1539 X2.7392 Y2.7053
N1540 X2.7316 Y2.7079
N1541 X2.7236 Y2.7084
N1542 X2.7157 Y2.7067
N1543 X2.7086 Y2.7028
N1544 X2.7028 Y2.6972
N1545 X2.6869 Y2.6766
N1546 G3 X2.6929 Y2.6574 I0.0101 J-0.0073
N1547 G1 X2.7398 Y2.6413
N1548 G3 X2.7535 Y2.6453 I0.0041 J0.0118
N1549 G1 X2.7697 Y2.6665
N1550 X2.773 Y2.6714
N1551 X2.7751 Y2.6769
N1552 X2.7763 Y2.6827
N1553 X2.7766 Y2.6886
N1554 X2.776 Y2.6945
N1555 X2.7747 Y2.7002
N1556 X2.7726 Y2.7058
N1557 X2.7699 Y2.711
N1558 X2.7666 Y2.7159
N1559 X2.7627 Y2.7204
N1560 X2.7615 Y2.7215
N1561 X2.7549 Y2.726
N1562 X2.7473 Y2.7286
N1563 X2.7393 Y2.729
N1564 X2.7315 Y2.7272
N1565 X2.7245 Y2.7234
N1566 X2.7188 Y2.7178
N1567 X2.7028 Y2.6972
N1568 G3 X2.7091 Y2.678 I0.0101 J-0.0073
N1569 G1 X2.7561 Y2.6626
N1570 G3 X2.7697 Y2.6665 I0.0039 J0.0119
N1571 G1 X2.7798 Y2.6797
N1572 X2.7851 Y2.6865
N1573 X2.7885 Y2.6913
N1574 X2.7907 Y2.6968
N1575 X2.792 Y2.7025
N1576 X2.7924 Y2.7084
N1577 X2.792 Y2.7143
N1578 X2.7907 Y2.7201
N1579 X2.7888 Y2.7257
N1580 X2.7862 Y2.731
N1581 X2.7829 Y2.7359
N1582 X2.7791 Y2.7404
N1583 X2.7778 Y2.7417
N1584 X2.7712 Y2.7463
N1585 X2.7637 Y2.749
N1586 X2.7558 Y2.7495
N1587 X2.748 Y2.7479
N1588 X2.7409 Y2.7442
N1589 X2.7351 Y2.7387
N1590 X2.7293 Y2.7314
N1591 X2.7188 Y2.7178
N1592 G3 X2.7248 Y2.6987 I0.0101 J-0.0073
N1593 G1 X2.7714 Y2.6826
N1594 G3 X2.7851 Y2.6865 I0.0041 J0.0118
N1595 G1 X2.7869 Y2.6889
N1596 X2.7889 Y2.6912
N1597 X2.8005 Y2.7044
N1598 X2.8042 Y2.709
N1599 X2.8068 Y2.7143
N1600 X2.8084 Y2.72
N1601 X2.8091 Y2.7259
N1602 X2.809 Y2.7318
N1603 X2.8081 Y2.7376
N1604 X2.8064 Y2.7433
N1605 X2.8041 Y2.7487
N1606 X2.8012 Y2.7538
N1607 X2.7977 Y2.7586
N1608 X2.7961 Y2.7602
N1609 X2.7898 Y2.7652
N1610 X2.7824 Y2.7683
N1611 X2.7745 Y2.7693
N1612 X2.7665 Y2.768
N1613 X2.7593 Y2.7647
N1614 X2.7532 Y2.7595
N1615 X2.741 Y2.7458
N1616 X2.7384 Y2.7428
N1617 X2.7351 Y2.7387
N1618 G3 X2.733 Y2.7343 I0.01 J-0.0075
N1619 X2.7405 Y2.7196 I0.0121 J-0.0031
N1620 G1 X2.7869 Y2.7013
N1621 G3 X2.7965 Y2.7016 I0.0046 J0.0116
N1622 X2.8005 Y2.7044 I-0.0051 J0.0114
N1623 G1 X2.8176 Y2.7238
N1624 X2.8213 Y2.7284
N1625 X2.8239 Y2.7337
N1626 X2.8255 Y2.7394
N1627 X2.8263 Y2.7453
N1628 X2.8262 Y2.7512
N1629 X2.8253 Y2.757
N1630 X2.8237 Y2.7627
N1631 X2.8214 Y2.7681
N1632 X2.8185 Y2.7733
N1633 X2.815 Y2.778
N1634 X2.8136 Y2.7796
N1635 X2.8073 Y2.7846
N1636 X2.7999 Y2.7878
N1637 X2.7919 Y2.7888
N1638 X2.784 Y2.7876
N1639 X2.7766 Y2.7842
N1640 X2.7705 Y2.779
N1641 X2.7532 Y2.7595
N1642 G3 X2.758 Y2.74 I0.0096 J-0.008
N1643 G1 X2.8037 Y2.7209
N1644 G3 X2.8176 Y2.7238 I0.0048 J0.0115
N1645 G1 X2.8344 Y2.7428
N1646 X2.8381 Y2.7475
N1647 X2.8408 Y2.7527
N1648 X2.8425 Y2.7583
N1649 X2.8434 Y2.7642
N1650 Y2.7701
N1651 X2.8426 Y2.7759
N1652 X2.8411 Y2.7817
N1653 X2.8389 Y2.7871
N1654 X2.8361 Y2.7923
N1655 X2.8326 Y2.7971
N1656 X2.8311 Y2.7988
N1657 X2.8248 Y2.8039
N1658 X2.8174 Y2.8072
N1659 X2.8094 Y2.8083
N1660 X2.8013 Y2.8071
N1661 X2.794 Y2.8037
N1662 X2.7878 Y2.7985
N1663 X2.7705 Y2.779
N1664 G3 X2.7751 Y2.7596 I0.0096 J-0.008
N1665 G1 X2.8203 Y2.74
N1666 G3 X2.8304 I0.005 J0.0115
N1667 X2.8344 Y2.7428 I-0.0051 J0.0114
N1668 G1 X2.8515 Y2.7623
N1669 X2.8552 Y2.7669
N1670 X2.8579 Y2.7721
N1671 X2.8597 Y2.7777
N1672 X2.8606 Y2.7836
N1673 Y2.7895
N1674 X2.8598 Y2.7953
N1675 X2.8584 Y2.8011
N1676 X2.8562 Y2.8065
N1677 X2.8533 Y2.8117
N1678 X2.8499 Y2.8165
N1679 X2.8484 Y2.8182
N1680 X2.8422 Y2.8233
N1681 X2.8348 Y2.8265
N1682 X2.8269 Y2.8277
N1683 X2.8189 Y2.8266
N1684 X2.8116 Y2.8233
N1685 X2.8053 Y2.8182
N1686 X2.7878 Y2.7985
N1687 G3 X2.7855 Y2.7942 I0.0096 J-0.008
N1688 X2.7924 Y2.779 I0.0119 J-0.0037
N1689 G1 X2.8374 Y2.7594
N1690 G3 X2.8515 Y2.7623 I0.005 J0.0115
N1691 G1 X2.8546 Y2.7658
N1692 X2.8616 Y2.7732
N1693 X2.8656 Y2.7773
N1694 X2.8674 Y2.779
N1695 X2.8714 Y2.7834
N1696 X2.8746 Y2.7884
N1697 X2.8767 Y2.7939
N1698 X2.878 Y2.7996
N1699 X2.8784 Y2.8055
N1700 X2.878 Y2.8114
N1701 X2.8769 Y2.8172
N1702 X2.8751 Y2.8228
N1703 X2.8726 Y2.8282
N1704 X2.8695 Y2.8332
N1705 X2.8679 Y2.8352
N1706 X2.862 Y2.8408
N1707 X2.8548 Y2.8445
N1708 X2.8469 Y2.8461
N1709 X2.8388 Y2.8454
N1710 X2.8312 Y2.8426
N1711 X2.8247 Y2.8378
N1712 X2.8099 Y2.8232
N1713 X2.8053 Y2.8182
N1714 G3 X2.8093 Y2.7989 I0.0095 J-0.0081
N1715 G1 X2.8534 Y2.777
N1716 G3 X2.8674 Y2.779 I0.0055 J0.0112
N1717 G1 X2.8859 Y2.7972
N1718 X2.8899 Y2.8016
N1719 X2.893 Y2.8066
N1720 X2.8952 Y2.8121
N1721 X2.8965 Y2.8179
N1722 X2.8969 Y2.8238
N1723 X2.8965 Y2.8297
N1724 X2.8954 Y2.8355
N1725 X2.8936 Y2.8411
N1726 X2.8911 Y2.8465
N1727 X2.888 Y2.8515
N1728 X2.8866 Y2.8534
N1729 X2.8807 Y2.859
N1730 X2.8735 Y2.8627
N1731 X2.8655 Y2.8643
N1732 X2.8574 Y2.8637
N1733 X2.8498 Y2.8609
N1734 X2.8433 Y2.856
N1735 X2.8247 Y2.8378
N1736 G3 X2.828 Y2.8181 I0.0091 J-0.0086
N1737 G1 X2.8717 Y2.7954
N1738 G3 X2.8859 Y2.7972 I0.0058 J0.0111
N1739 G1 X2.9044 Y2.8154
N1740 X2.9084 Y2.8197
N1741 X2.9115 Y2.8248
N1742 X2.9137 Y2.8303
N1743 X2.915 Y2.836
N1744 X2.9154 Y2.8419
N1745 X2.9151 Y2.8478
N1746 X2.914 Y2.8536
N1747 X2.9122 Y2.8592
N1748 X2.9097 Y2.8646
N1749 X2.9067 Y2.8696
N1750 X2.9052 Y2.8715
N1751 X2.8993 Y2.8772
N1752 X2.8921 Y2.8809
N1753 X2.8841 Y2.8826
N1754 X2.876 Y2.882
N1755 X2.8684 Y2.8791
N1756 X2.8618 Y2.8743
N1757 X2.8433 Y2.856
N1758 G3 X2.8465 Y2.8364 I0.0091 J-0.0086
N1759 G1 X2.8902 Y2.8135
N1760 G3 X2.9044 Y2.8154 I0.0058 J0.0111
N1761 G1 X2.923 Y2.8337
N1762 X2.927 Y2.838
N1763 X2.9301 Y2.8431
N1764 X2.9323 Y2.8486
N1765 X2.9336 Y2.8543
N1766 X2.934 Y2.8602
N1767 X2.9336 Y2.8661
N1768 X2.9326 Y2.8719
N1769 X2.9307 Y2.8775
N1770 X2.9283 Y2.8829
N1771 X2.9252 Y2.8879
N1772 X2.9237 Y2.8898
N1773 X2.9178 Y2.8954
N1774 X2.9106 Y2.8992
N1775 X2.9027 Y2.9008
N1776 X2.8945 Y2.9002
N1777 X2.8869 Y2.8974
N1778 X2.8804 Y2.8925
N1779 X2.8618 Y2.8743
N1780 G3 X2.8651 Y2.8546 I0.0091 J-0.0086
N1781 G1 X2.9088 Y2.8318
N1782 G3 X2.923 Y2.8337 I0.0058 J0.0111
N1783 G1 X2.9306 Y2.8411
N1784 X2.9363 Y2.8466
N1785 X2.9421 Y2.8519
N1786 X2.9464 Y2.8559
N1787 X2.9493 Y2.861
N1788 X2.9514 Y2.8666
N1789 X2.9526 Y2.8723
N1790 X2.953 Y2.8782
N1791 X2.9527 Y2.8841
N1792 X2.9516 Y2.8899
N1793 X2.9497 Y2.8955
N1794 X2.9473 Y2.9009
N1795 X2.9442 Y2.906
N1796 X2.9433 Y2.9072
N1797 X2.9377 Y2.9126
N1798 X2.9308 Y2.9164
N1799 X2.9232 Y2.9182
N1800 X2.9154 Y2.9179
N1801 X2.9079 Y2.9155
N1802 X2.9013 Y2.9113
N1803 X2.8923 Y2.9035
N1804 X2.8857 Y2.8978
N1805 X2.8804 Y2.8925
N1806 G3 X2.8839 Y2.8727 I0.0091 J-0.0086
N1807 G1 X2.9288 Y2.8505
N1808 G3 X2.9421 Y2.8519 I0.0056 J0.0112
N1809 G1 X2.9593 Y2.8665
N1810 X2.9636 Y2.8706
N1811 X2.9671 Y2.8753
N1812 X2.9697 Y2.8807
N1813 X2.9714 Y2.8863
N1814 X2.9723 Y2.8922
N1815 X2.9724 Y2.8981
N1816 X2.9717 Y2.9039
N1817 X2.9703 Y2.9097
N1818 X2.9682 Y2.9152
N1819 X2.9655 Y2.9205
N1820 X2.9642 Y2.9225
N1821 X2.9587 Y2.9285
N1822 X2.9517 Y2.9328
N1823 X2.9439 Y2.935
N1824 X2.9357 Y2.9349
N1825 X2.9279 Y2.9326
N1826 X2.9211 Y2.9282
N1827 X2.9013 Y2.9113
N1828 G3 X2.9032 Y2.8915 I0.0085 J-0.0092
N1829 G1 X2.945 Y2.8657
N1830 G3 X2.955 Y2.8643 I0.0066 J0.0106
N1831 X2.9593 Y2.8665 I-0.0034 J0.012
N1832 G1 X2.9797 Y2.8839
N1833 X2.984 Y2.8879
N1834 X2.9874 Y2.8928
N1835 X2.9898 Y2.8982
N1836 X2.9914 Y2.9038
N1837 X2.9922 Y2.9097
N1838 Y2.9156
N1839 X2.9914 Y2.9215
N1840 X2.9899 Y2.9272
N1841 X2.9878 Y2.9327
N1842 X2.985 Y2.9379
N1843 X2.9838 Y2.9397
N1844 X2.9783 Y2.9457
N1845 X2.9713 Y2.9499
N1846 X2.9635 Y2.952
N1847 X2.9554 Y2.9519
N1848 X2.9476 Y2.9496
N1849 X2.9408 Y2.9452
N1850 X2.9211 Y2.9282
N1851 G3 X2.9231 Y2.9083 I0.0085 J-0.0092
N1852 G1 X2.9656 Y2.8829
N1853 G3 X2.9754 Y2.8816 I0.0064 J0.0107
N1854 X2.9797 Y2.8839 I-0.0034 J0.012
N1855 G1 X2.9996 Y2.9007
N1856 X3.0039 Y2.9047
N1857 X3.0072 Y2.9096
N1858 X3.0096 Y2.915
N1859 X3.0113 Y2.9207
N1860 X3.012 Y2.9265
N1861 Y2.9324
N1862 X3.0113 Y2.9383
N1863 X3.0098 Y2.944
N1864 X3.0077 Y2.9495
N1865 X3.0049 Y2.9547
N1866 X3.0036 Y2.9567
N1867 X2.9982 Y2.9626
N1868 X2.9913 Y2.9668
N1869 X2.9835 Y2.9689
N1870 X2.9755
N1871 X2.9678 Y2.9667
N1872 X2.9609 Y2.9624
N1873 X2.9592 Y2.9609
N1874 X2.9408 Y2.9452
N1875 G3 X2.9429 Y2.9253 I0.0085 J-0.0092
N1876 G1 X2.9854 Y2.8998
N1877 G3 X2.9996 Y2.9007 I0.0064 J0.0107
N1878 G1 X3.0168 Y2.9153
N1879 X3.0185 Y2.9167
N1880 X3.023 Y2.9206
N1881 X3.0265 Y2.9254
N1882 X3.0291 Y2.9307
N1883 X3.0309 Y2.9363
N1884 X3.0319 Y2.9421
N1885 X3.032 Y2.948
N1886 X3.0314 Y2.9539
N1887 X3.0301 Y2.9597
N1888 X3.0282 Y2.9652
N1889 X3.0255 Y2.9705
N1890 X3.0244 Y2.9722
N1891 X3.0192 Y2.9782
N1892 X3.0126 Y2.9825
N1893 X3.0051 Y2.9849
N1894 X2.9972 Y2.9852
N1895 X2.9895 Y2.9834
N1896 X2.9826 Y2.9796
N1897 X2.9766 Y2.975
N1898 X2.9651 Y2.9659
N1899 X2.9609 Y2.9624
N1900 G3 X2.958 Y2.9585 I0.0083 J-0.0093
N1901 X2.9626 Y2.9425 I0.0113 J-0.0054
N1902 G1 X3.0044 Y2.9162
N1903 G3 X3.0141 Y2.9147 I0.0067 J0.0106
N1904 X3.0185 Y2.9167 I-0.003 J0.0121
N1905 G1 X3.0225 Y2.9199
N1906 X3.034 Y2.9287
N1907 X3.0388 Y2.9322
N1908 X3.0434 Y2.936
N1909 X3.0469 Y2.9407
N1910 X3.0496 Y2.946
N1911 X3.0514 Y2.9516
N1912 X3.0525 Y2.9574
N1913 X3.0527 Y2.9633
N1914 X3.0522 Y2.9692
N1915 X3.051 Y2.975
N1916 X3.0491 Y2.9806
N1917 X3.0466 Y2.9859
N1918 X3.0456 Y2.9874
N1919 X3.0405 Y2.9935
N1920 X3.0338 Y2.998
N1921 X3.0263 Y3.0005
N1922 X3.0183 Y3.0009
N1923 X3.0105 Y2.999
N1924 X3.0035 Y2.9952
N1925 X2.9826 Y2.9796
N1926 G3 X2.9835 Y2.9594 I0.0078 J-0.0097
N1927 G1 X3.0249 Y2.9321
N1928 G3 X3.0388 Y2.9322 I0.0069 J0.0104
N1929 G1 X3.0586 Y2.9467
N1930 X3.0632 Y2.9504
N1931 X3.067 Y2.955
N1932 X3.0698 Y2.9602
N1933 X3.0719 Y2.9657
N1934 X3.0731 Y2.9715
N1935 X3.0735 Y2.9774
N1936 X3.0733 Y2.9833
N1937 X3.0722 Y2.9891
N1938 X3.0705 Y2.9947
N1939 X3.0681 Y3.0002
N1940 X3.0669 Y3.0022
N1941 X3.0618 Y3.0086
N1942 X3.0552 Y3.0133
N1943 X3.0475 Y3.016
N1944 X3.0394 Y3.0165
N1945 X3.0315 Y3.0147
N1946 X3.0243 Y3.0108
N1947 X3.0035 Y2.9952
N1948 G3 X3.0041 Y2.9752 I0.0078 J-0.0097
N1949 G1 X3.0444 Y2.9468
N1950 G3 X3.0586 Y2.9467 I0.0072 J0.0102
N1951 G1 X3.08 Y2.9624
N1952 X3.0846 Y2.9661
N1953 X3.0882 Y2.9707
N1954 X3.091 Y2.9759
N1955 X3.093 Y2.9815
N1956 X3.0942 Y2.9873
N1957 X3.0946 Y2.9932
N1958 X3.0942 Y2.9991
N1959 X3.0931 Y3.0049
N1960 X3.0914 Y3.0105
N1961 X3.089 Y3.0159
N1962 X3.0878 Y3.018
N1963 X3.0827 Y3.0243
N1964 X3.0761 Y3.029
N1965 X3.0684 Y3.0316
N1966 X3.0603 Y3.0321
N1967 X3.0524 Y3.0303
N1968 X3.0453 Y3.0264
N1969 X3.0243 Y3.0108
N1970 G3 X3.025 Y2.9907 I0.0078 J-0.0097
N1971 G1 X3.0658 Y2.9624
N1972 G3 X3.0755 Y2.9605 I0.0071 J0.0103
N1973 X3.08 Y2.9624 I-0.0025 J0.0122
N1974 G1 X3.1007 Y2.9775
N1975 X3.1053 Y2.9812
N1976 X3.109 Y2.9858
N1977 X3.1119 Y2.991
N1978 X3.1139 Y2.9965
N1979 X3.1151 Y3.0023
N1980 X3.1156 Y3.0082
N1981 X3.1153 Y3.0141
N1982 X3.1143 Y3.0199
N1983 X3.1126 Y3.0256
N1984 X3.1103 Y3.031
N1985 X3.1094 Y3.0326
N1986 X3.1045 Y3.0388
N1987 X3.0982 Y3.0435
N1988 X3.0909 Y3.0463
N1989 X3.0831 Y3.0471
N1990 X3.0754 Y3.0457
N1991 X3.0683 Y3.0424
N1992 X3.0628 Y3.0388
N1993 X3.057 Y3.035
N1994 X3.0513 Y3.0309
N1995 X3.0453 Y3.0264
N1996 G3 X3.0459 Y3.0065 I0.0078 J-0.0097
N1997 G1 X3.0864 Y2.9777
N1998 G3 X3.0962 Y2.9756 I0.0072 J0.0102
N1999 X3.1007 Y2.9775 I-0.0025 J0.0122
N2000 G1 X3.1094 Y2.9839
N2001 X3.1145 Y2.9873
N2002 X3.1202 Y2.991
N2003 X3.125 Y2.9944
N2004 X3.1291 Y2.9987
N2005 X3.1322 Y3.0037
N2006 X3.1346 Y3.0091
N2007 X3.1361 Y3.0148
N2008 X3.1369 Y3.0207
N2009 Y3.0266
N2010 X3.1362 Y3.0324
N2011 X3.1348 Y3.0382
N2012 X3.1327 Y3.0437
N2013 X3.1318 Y3.0455
N2014 X3.1271 Y3.0521
N2015 X3.1208 Y3.0571
N2016 X3.1134 Y3.0602
N2017 X3.1054 Y3.0612
N2018 X3.0974 Y3.0599
N2019 X3.0901 Y3.0565
N2020 X3.0683 Y3.0424
N2021 G3 X3.0649 Y3.0389 I0.0072 J-0.0103
N2022 X3.0677 Y3.0223 I0.0105 J-0.0067
N2023 G1 X3.1062 Y2.992
N2024 G3 X3.1156 Y2.9894 I0.0077 J0.0098
N2025 X3.1202 Y2.991 I-0.0017 J0.0124
N2026 G1 X3.142 Y3.0047
N2027 X3.1469 Y3.0081
N2028 X3.1509 Y3.0124
N2029 X3.154 Y3.0174
N2030 X3.1564 Y3.0228
N2031 X3.158 Y3.0285
N2032 X3.1588 Y3.0344
N2033 X3.1589 Y3.0403
N2034 X3.1582 Y3.0461
N2035 X3.1568 Y3.0519
N2036 X3.1548 Y3.0574
N2037 X3.1538 Y3.0594
N2038 X3.1491 Y3.066
N2039 X3.1428 Y3.0712
N2040 X3.1354 Y3.0743
N2041 X3.1273 Y3.0753
N2042 X3.1193 Y3.0741
N2043 X3.112 Y3.0706
N2044 X3.0901 Y3.0565
N2045 G3 X3.0867 Y3.053 I0.0072 J-0.0103
N2046 X3.0895 Y3.0365 I0.0105 J-0.0067
N2047 G1 X3.128 Y3.0057
N2048 G3 X3.142 Y3.0047 I0.0078 J0.0098
N2049 G1 X3.1638 Y3.0183
N2050 X3.1686 Y3.0217
N2051 X3.1727 Y3.026
N2052 X3.1759 Y3.031
N2053 X3.1783 Y3.0364
N2054 X3.1799 Y3.042
N2055 X3.1808 Y3.0479
N2056 X3.1809 Y3.0538
N2057 X3.1803 Y3.0597
N2058 X3.179 Y3.0654
N2059 X3.177 Y3.071
N2060 X3.1758 Y3.0733
N2061 X3.1712 Y3.0801
N2062 X3.1649 Y3.0852
N2063 X3.1574 Y3.0885
N2064 X3.1493 Y3.0895
N2065 X3.1413 Y3.0883
N2066 X3.1339 Y3.0848
N2067 X3.112 Y3.0706
N2068 G3 X3.1086 Y3.0671 I0.0072 J-0.0103
N2069 X3.1112 Y3.0507 I0.0105 J-0.0067
N2070 G1 X3.1496 Y3.0194
N2071 G3 X3.1638 Y3.0183 I0.0079 J0.0097
N2072 G1 X3.1866 Y3.0326
N2073 X3.1914 Y3.036
N2074 X3.1953 Y3.0404
N2075 X3.1984 Y3.0455
N2076 X3.2007 Y3.0509
N2077 X3.2022 Y3.0566
N2078 X3.203 Y3.0625
N2079 Y3.0684
N2080 X3.2023 Y3.0742
N2081 X3.201 Y3.08
N2082 X3.1989 Y3.0855
N2083 X3.1981 Y3.0872
N2084 X3.1926 Y3.0947
N2085 X3.185 Y3.1001
N2086 X3.1761 Y3.1028
N2087 X3.1667 Y3.1026
N2088 X3.1579 Y3.0994
N2089 X3.1547 Y3.0976
N2090 X3.1432 Y3.0908
N2091 X3.1339 Y3.0848
N2092 G3 X3.1333 Y3.0648 I0.0072 J-0.0103
N2093 G1 X3.1726 Y3.0336
N2094 G3 X3.1866 Y3.0326 I0.0078 J0.0098
N2095 G1 X3.2064 Y3.045
N2096 X3.2075 Y3.0456
N2097 X3.2126 Y3.0487
N2098 X3.2167 Y3.0529
N2099 X3.22 Y3.0578
N2100 X3.2225 Y3.0632
N2101 X3.2242 Y3.0688
N2102 X3.2251 Y3.0747
N2103 X3.2254 Y3.0806
N2104 X3.2249 Y3.0865
N2105 X3.2236 Y3.0922
N2106 X3.2218 Y3.0978
N2107 X3.2212 Y3.0989
N2108 X3.2169 Y3.1056
N2109 X3.211 Y3.1109
N2110 X3.2038 Y3.1143
N2111 X3.196 Y3.1157
N2112 X3.1881 Y3.1149
N2113 X3.1807 Y3.1121
N2114 X3.1579 Y3.0994
N2115 G3 X3.1563 Y3.0792 I0.0064 J-0.0107
N2116 G1 X3.1938 Y3.0472
N2117 G3 X3.2075 Y3.0456 I0.0081 J0.0095
N2118 G1 X3.2122 Y3.0481
N2119 X3.2294 Y3.0573
N2120 X3.2345 Y3.0603
N2121 X3.2387 Y3.0644
N2122 X3.2421 Y3.0692
N2123 X3.2447 Y3.0745
N2124 X3.2467 Y3.0801
N2125 X3.2478 Y3.0859
N2126 X3.2482 Y3.0918
N2127 X3.2478 Y3.0977
N2128 X3.2468 Y3.1035
N2129 X3.2451 Y3.1092
N2130 X3.2443 Y3.111
N2131 X3.24 Y3.1178
N2132 X3.2341 Y3.1232
N2133 X3.2269 Y3.1268
N2134 X3.219 Y3.1283
N2135 X3.2109 Y3.1276
N2136 X3.2034 Y3.1247
N2137 X3.1807 Y3.1121
N2138 G3 X3.1788 Y3.092 I0.0064 J-0.0107
N2139 G1 X3.2156 Y3.0592
N2140 G3 X3.2247 Y3.056 I0.0083 J0.0093
N2141 X3.2294 Y3.0573 I-0.0007 J0.0125
N2142 G1 X3.2512 Y3.0688
N2143 X3.2563 Y3.0718
N2144 X3.2607 Y3.0758
N2145 X3.2643 Y3.0805
N2146 X3.2671 Y3.0857
N2147 X3.2692 Y3.0912
N2148 X3.2704 Y3.097
N2149 X3.271 Y3.1029
N2150 X3.2708 Y3.1088
N2151 X3.27 Y3.1146
N2152 X3.2684 Y3.1203
N2153 X3.2674 Y3.1229
N2154 X3.2633 Y3.1299
N2155 X3.2573 Y3.1356
N2156 X3.2501 Y3.1394
N2157 X3.242 Y3.141
N2158 X3.2339 Y3.1403
N2159 X3.2262 Y3.1373
N2160 X3.2034 Y3.1247
N2161 G3 X3.2013 Y3.1049 I0.0064 J-0.0107
N2162 G1 X3.2372 Y3.071
N2163 G3 X3.2512 Y3.0688 I0.0086 J0.0091
N2164 G1 X3.275 Y3.0815
N2165 X3.2801 Y3.0845
N2166 X3.2843 Y3.0886
N2167 X3.2878 Y3.0934
N2168 X3.2905 Y3.0987
N2169 X3.2924 Y3.1042
N2170 X3.2936 Y3.11
N2171 X3.2941 Y3.1159
N2172 X3.2939 Y3.1218
N2173 X3.2929 Y3.1276
N2174 X3.2913 Y3.1333
N2175 X3.2905 Y3.1353
N2176 X3.2865 Y3.1421
N2177 X3.2809 Y3.1475
N2178 X3.2741 Y3.1513
N2179 X3.2664 Y3.1531
N2180 X3.2586 Y3.1528
N2181 X3.2512 Y3.1505
N2182 X3.2466 Y3.1483
N2183 X3.2351 Y3.1422
N2184 X3.2262 Y3.1373
N2185 G3 X3.2242 Y3.1174 I0.0064 J-0.0107
N2186 G1 X3.2611 Y3.0835
N2187 G3 X3.275 Y3.0815 I0.0085 J0.0092
N2188 G1 X3.2967 Y3.0929
N2189 X3.3018 Y3.096
N2190 X3.3062 Y3.0998
N2191 X3.3099 Y3.1045
N2192 X3.3128 Y3.1096
N2193 X3.315 Y3.1151
N2194 X3.3164 Y3.1208
N2195 X3.3171 Y3.1267
N2196 X3.317 Y3.1326
N2197 X3.3163 Y3.1384
N2198 X3.3148 Y3.1442
N2199 X3.3143 Y3.1456
N2200 X3.3105 Y3.1525
N2201 X3.3049 Y3.1582
N2202 X3.298 Y3.1622
N2203 X3.2902 Y3.1641
N2204 X3.2823 Y3.1639
N2205 X3.2747 Y3.1615
N2206 X3.2512 Y3.1505
N2207 G3 X3.2479 Y3.1306 I0.0057 J-0.0111
N2208 G1 X3.2823 Y3.0954
N2209 G3 X3.2967 Y3.0929 I0.0089 J0.0087
N2210 G1 X3.2983 Y3.0938
N2211 X3.3041 Y3.0967
N2212 X3.3186 Y3.1033
N2213 X3.3238 Y3.106
N2214 X3.3284 Y3.1097
N2215 X3.3323 Y3.1141
N2216 X3.3355 Y3.1191
N2217 X3.3379 Y3.1245
N2218 X3.3395 Y3.1302
N2219 X3.3404 Y3.136
N2220 X3.3406 Y3.142
N2221 X3.34 Y3.1478
N2222 X3.3388 Y3.1536
N2223 X3.3381 Y3.1557
N2224 X3.3344 Y3.1629
N2225 X3.3288 Y3.1688
N2226 X3.3218 Y3.173
N2227 X3.314 Y3.1751
N2228 X3.3059 Y3.1749
N2229 X3.2981 Y3.1725
N2230 X3.2747 Y3.1615
N2231 G3 X3.2709 Y3.1585 I0.0057 J-0.0111
N2232 X3.2713 Y3.1418 I0.0095 J-0.0081
N2233 G1 X3.3047 Y3.1063
N2234 G3 X3.3186 Y3.1033 I0.0091 J0.0086
N2235 G1 X3.3213 Y3.1045
N2236 X3.3417 Y3.1135
N2237 X3.347 Y3.1162
N2238 X3.3517 Y3.1198
N2239 X3.3556 Y3.1242
N2240 X3.3588 Y3.1292
N2241 X3.3613 Y3.1345
N2242 X3.363 Y3.1402
N2243 X3.364 Y3.146
N2244 X3.3643 Y3.1519
N2245 X3.3638 Y3.1578
N2246 X3.3627 Y3.1636
N2247 X3.3608 Y3.1692
N2248 X3.3558 Y3.1769
N2249 X3.3485 Y3.1827
N2250 X3.3399 Y3.1859
N2251 X3.3307 Y3.1862
N2252 X3.3218 Y3.1837
N2253 X3.2981 Y3.1725
N2254 G3 X3.2946 Y3.1529 I0.0057 J-0.0111
N2255 G1 X3.3279 Y3.1167
N2256 G3 X3.3417 Y3.1135 I0.0092 J0.0085
N2257 G1 X3.3661 Y3.1243
N2258 X3.3714 Y3.127
N2259 X3.376 Y3.1307
N2260 X3.3798 Y3.1352
N2261 X3.3829 Y3.1402
N2262 X3.3854 Y3.1456
N2263 X3.387 Y3.1513
N2264 X3.388 Y3.1571
N2265 X3.3882 Y3.163
N2266 X3.3877 Y3.1689
N2267 X3.3865 Y3.1747
N2268 X3.3859 Y3.1768
N2269 X3.3824 Y3.1841
N2270 X3.377 Y3.1901
N2271 X3.3702 Y3.1945
N2272 X3.3624 Y3.1968
N2273 X3.3544
N2274 X3.3466 Y3.1947
N2275 X3.3328 Y3.1887
N2276 X3.3271 Y3.1861
N2277 X3.3218 Y3.1837
N2278 G3 X3.318 Y3.1806 I0.0057 J-0.0111
N2279 X3.3184 Y3.164 I0.0095 J-0.0081
N2280 G1 X3.3523 Y3.1274
N2281 G3 X3.3661 Y3.1243 I0.0092 J0.0085
N2282 G1 X3.3903 Y3.135
N2283 X3.3956 Y3.1376
N2284 X3.4001 Y3.1414
N2285 X3.4039 Y3.1459
N2286 X3.407 Y3.1509
N2287 X3.4094 Y3.1563
N2288 X3.411 Y3.162
N2289 X3.412 Y3.1678
N2290 X3.4122 Y3.1737
N2291 X3.4117 Y3.1796
N2292 X3.4105 Y3.1854
N2293 X3.4101 Y3.1866
N2294 X3.4067 Y3.1937
N2295 X3.4014 Y3.1996
N2296 X3.3948 Y3.2039
N2297 X3.3873 Y3.2063
N2298 X3.3795 Y3.2065
N2299 X3.3718 Y3.2047
N2300 X3.3501 Y3.1962
N2301 X3.3466 Y3.1947
N2302 G3 X3.3426 Y3.1918 I0.0053 J-0.0113
N2303 X3.3427 Y3.175 I0.0093 J-0.0084
N2304 G1 X3.3764 Y3.1381
N2305 G3 X3.3903 Y3.135 I0.0092 J0.0084
N2306 G1 X3.396 Y3.1375
N2307 X3.4018 Y3.1399
N2308 X3.4133 Y3.1445
N2309 X3.4186 Y3.147
N2310 X3.4233 Y3.1506
N2311 X3.4273 Y3.155
N2312 X3.4305 Y3.1599
N2313 X3.4331 Y3.1653
N2314 X3.4348 Y3.1709
N2315 X3.4359 Y3.1767
N2316 X3.4362 Y3.1826
N2317 X3.4359 Y3.1885
N2318 X3.4348 Y3.1943
N2319 X3.4344 Y3.1956
N2320 X3.431 Y3.2028
N2321 X3.4258 Y3.2088
N2322 X3.4192 Y3.2132
N2323 X3.4116 Y3.2156
N2324 X3.4037 Y3.2159
N2325 X3.396 Y3.2141
N2326 X3.3718 Y3.2047
N2327 G3 X3.3673 Y3.185 I0.0049 J-0.0115
N2328 G1 X3.3996 Y3.148
N2329 G3 X3.4133 Y3.1445 I0.0094 J0.0082
N2330 G1 X3.4305 Y3.1507
N2331 X3.4362 Y3.1527
N2332 X3.4417 Y3.155
N2333 X3.4465 Y3.1585
N2334 X3.4506 Y3.1627
N2335 X3.454 Y3.1675
N2336 X3.4568 Y3.1727
N2337 X3.4587 Y3.1783
N2338 X3.46 Y3.1841
N2339 X3.4606 Y3.1899
N2340 X3.4604 Y3.1959
N2341 X3.4596 Y3.2017
N2342 X3.459 Y3.204
N2343 X3.4558 Y3.2115
N2344 X3.4506 Y3.2178
N2345 X3.4439 Y3.2224
N2346 X3.4362 Y3.225
N2347 X3.4281 Y3.2254
N2348 X3.4202 Y3.2236
N2349 X3.396 Y3.2141
N2350 G3 X3.3913 Y3.1946 I0.0049 J-0.0115
N2351 G1 X3.4228 Y3.1567
N2352 G3 X3.4314 Y3.1522 I0.0096 J0.008
N2353 X3.4362 Y3.1527 I0.0011 J0.0125
N2354 G1 X3.4592 Y3.161
N2355 X3.4647 Y3.1632
N2356 X3.4697 Y3.1664
N2357 X3.474 Y3.1705
N2358 X3.4776 Y3.1751
N2359 X3.4805 Y3.1803
N2360 X3.4827 Y3.1857
N2361 X3.4842 Y3.1915
N2362 X3.485 Y3.1973
N2363 Y3.2032
N2364 X3.4844 Y3.2091
N2365 X3.4831 Y3.2148
N2366 X3.4829 Y3.2152
N2367 X3.4786 Y3.2233
N2368 X3.472 Y3.2296
N2369 X3.4637 Y3.2336
N2370 X3.4547 Y3.2348
N2371 X3.4457 Y3.2332
N2372 X3.442 Y3.2319
N2373 X3.4238 Y3.2249
N2374 X3.4202 Y3.2236
N2375 G3 X3.4162 Y3.2208 I0.0049 J-0.0115
N2376 X3.4153 Y3.2044 I0.009 J-0.0087
N2377 G1 X3.4456 Y3.1652
N2378 G3 X3.4544 Y3.1604 I0.0099 J0.0076
N2379 X3.4592 Y3.161 I0.0011 J0.0125
N2380 G1 X3.484 Y3.1698
N2381 X3.4894 Y3.1721
N2382 X3.4943 Y3.1753
N2383 X3.4986 Y3.1794
N2384 X3.5022 Y3.184
N2385 X3.5052 Y3.1892
N2386 X3.5074 Y3.1946
N2387 X3.5089 Y3.2004
N2388 X3.5097 Y3.2062
N2389 X3.5098 Y3.2121
N2390 X3.5091 Y3.218
N2391 X3.5088 Y3.2197
N2392 X3.506 Y3.2273
N2393 X3.5012 Y3.2338
N2394 X3.4949 Y3.2387
N2395 X3.4875 Y3.2418
N2396 X3.4795 Y3.2427
N2397 X3.4715 Y3.2413
N2398 X3.4477 Y3.2339
N2399 X3.4457 Y3.2332
N2400 G3 X3.4416 Y3.2305 I0.0046 J-0.0116
N2401 X3.4402 Y3.214 I0.0087 J-0.009
N2402 G1 X3.4702 Y3.1742
N2403 G3 X3.484 Y3.1698 I0.01 J0.0075
N2404 G1 X3.5099 Y3.179
N2405 X3.5154 Y3.1813
N2406 X3.5201 Y3.1848
N2407 X3.5243 Y3.189
N2408 X3.5277 Y3.1938
N2409 X3.5304 Y3.199
N2410 X3.5325 Y3.2046
N2411 X3.5338 Y3.2103
N2412 X3.5343 Y3.2162
N2413 X3.5342 Y3.2221
N2414 X3.5334 Y3.228
N2415 X3.5332 Y3.2286
N2416 X3.5302 Y3.2359
N2417 X3.5254 Y3.2421
N2418 X3.5191 Y3.2468
N2419 X3.5118 Y3.2496
N2420 X3.504 Y3.2504
N2421 X3.4963 Y3.2491
N2422 X3.4715 Y3.2413
N2423 G3 X3.4659 Y3.2218 I0.0042 J-0.0118
N2424 G1 X3.4964 Y3.1832
N2425 G3 X3.5099 Y3.179 I0.0098 J0.0077
N2426 G1 X3.5109 Y3.1794
N2427 X3.5224 Y3.1827
N2428 X3.5322 Y3.1854
N2429 X3.5378 Y3.1872
N2430 X3.5428 Y3.1903
N2431 X3.5472 Y3.1943
N2432 X3.551 Y3.1988
N2433 X3.554 Y3.2039
N2434 X3.5564 Y3.2093
N2435 X3.5581 Y3.2149
N2436 X3.559 Y3.2208
N2437 X3.5593 Y3.2267
N2438 X3.5588 Y3.2326
N2439 X3.5584 Y3.2348
N2440 X3.5557 Y3.2425
N2441 X3.551 Y3.2491
N2442 X3.5446 Y3.2542
N2443 X3.5371 Y3.2573
N2444 X3.529 Y3.2582
N2445 X3.521 Y3.2569
N2446 X3.4963 Y3.2491
N2447 G3 X3.4903 Y3.23 I0.0042 J-0.0118
N2448 G1 X3.5191 Y3.1902
N2449 G3 X3.5273 Y3.1852 I0.0101 J0.0073
N2450 X3.5322 Y3.1854 I0.002 J0.0123
N2451 G1 X3.5569 Y3.1922
N2452 X3.5625 Y3.1941
N2453 X3.5676 Y3.1972
N2454 X3.572 Y3.2011
N2455 X3.5758 Y3.2056
N2456 X3.5789 Y3.2106
N2457 X3.5813 Y3.216
N2458 X3.583 Y3.2217
N2459 X3.5841 Y3.2275
N2460 X3.5844 Y3.2334
N2461 X3.584 Y3.2393
N2462 X3.5829 Y3.2451
N2463 X3.5791 Y3.2531
N2464 X3.5731 Y3.2596
N2465 X3.5654 Y3.264
N2466 X3.5567 Y3.2659
N2467 X3.5479 Y3.2651
N2468 X3.5454 Y3.2644
N2469 X3.5397 Y3.2627
N2470 X3.521 Y3.2569
N2471 G3 X3.515 Y3.2379 I0.0042 J-0.0118
N2472 G1 X3.5438 Y3.1972
N2473 G3 X3.5569 Y3.1922 I0.0102 J0.0072
N2474 G1 X3.5816 Y3.1991
N2475 X3.5872 Y3.201
N2476 X3.5923 Y3.204
N2477 X3.5968 Y3.2078
N2478 X3.6006 Y3.2123
N2479 X3.6038 Y3.2173
N2480 X3.6064 Y3.2226
N2481 X3.6082 Y3.2282
N2482 X3.6093 Y3.234
N2483 X3.6097 Y3.2399
N2484 X3.6095 Y3.2458
N2485 X3.6092 Y3.2475
N2486 X3.6069 Y3.2552
N2487 X3.6026 Y3.2619
N2488 X3.5966 Y3.2673
N2489 X3.5894 Y3.2708
N2490 X3.5815 Y3.2722
N2491 X3.5736 Y3.2714
N2492 X3.5627 Y3.2688
N2493 X3.5479 Y3.2651
N2494 G3 X3.5436 Y3.2628 I0.0035 J-0.012
N2495 X3.5409 Y3.2462 I0.0078 J-0.0098
N2496 G1 X3.5683 Y3.2044
N2497 G3 X3.5816 Y3.1991 I0.0105 J0.0068
N2498 G1 X3.6029 Y3.205
N2499 X3.606 Y3.2058
N2500 X3.6117 Y3.2076
N2501 X3.6168 Y3.2105
N2502 X3.6214 Y3.2142
N2503 X3.6254 Y3.2186
N2504 X3.6287 Y3.2235
N2505 X3.6313 Y3.2288
N2506 X3.6332 Y3.2344
N2507 X3.6344 Y3.2402
N2508 X3.6349 Y3.2461
N2509 X3.6347 Y3.252
N2510 X3.6344 Y3.2536
N2511 X3.6321 Y3.2612
N2512 X3.6278 Y3.268
N2513 X3.6218 Y3.2733
N2514 X3.6146 Y3.2768
N2515 X3.6067 Y3.2782
N2516 X3.5988 Y3.2775
N2517 X3.5736 Y3.2714
N2518 G3 X3.5664 Y3.2526 I0.0034 J-0.012
N2519 G1 X3.5927 Y3.2113
N2520 G3 X3.6012 Y3.2057 I0.0105 J0.0067
N2521 X3.606 Y3.2058 I0.0021 J0.0123
N2522 G1 X3.6086 Y3.2065
N2523 X3.6201 Y3.2094
N2524 X3.6259 Y3.2108
N2525 X3.629 Y3.2114
N2526 X3.6348 Y3.2129
N2527 X3.6401 Y3.2154
N2528 X3.6449 Y3.2188
N2529 X3.6491 Y3.223
N2530 X3.6527 Y3.2277
N2531 X3.6555 Y3.2329
N2532 X3.6577 Y3.2384
N2533 X3.6592 Y3.2441
N2534 X3.6599 Y3.2499
N2535 X3.66 Y3.2558
N2536 X3.6597 Y3.2584
N2537 X3.6576 Y3.2664
N2538 X3.6534 Y3.2734
N2539 X3.6474 Y3.279
N2540 X3.6401 Y3.2828
N2541 X3.6321 Y3.2843
N2542 X3.6239 Y3.2835
N2543 X3.5988 Y3.2775
N2544 G3 X3.5914 Y3.259 I0.0034 J-0.012
N2545 G1 X3.6163 Y3.2174
N2546 G3 X3.629 Y3.2114 I0.0107 J0.0064
N2547 G1 X3.6546 Y3.2166
N2548 X3.6603 Y3.218
N2549 X3.6656 Y3.2206
N2550 X3.6704 Y3.2241
N2551 X3.6745 Y3.2283
N2552 X3.6781 Y3.2331
N2553 X3.6809 Y3.2383
N2554 X3.6831 Y3.2437
N2555 X3.6846 Y3.2495
N2556 X3.6854 Y3.2553
N2557 X3.6855 Y3.2612
N2558 X3.6848 Y3.2672
N2559 X3.6815 Y3.2757
N2560 X3.6757 Y3.2828
N2561 X3.668 Y3.2878
N2562 X3.6592 Y3.2901
N2563 X3.65 Y3.2896
N2564 X3.6374 Y3.2868
N2565 X3.6239 Y3.2835
N2566 G3 X3.6165 Y3.2651 I0.0034 J-0.012
N2567 G1 X3.6418 Y3.2225
N2568 G3 X3.6546 Y3.2166 I0.0107 J0.0064
N2569 G1 X3.6807 Y3.2219
N2570 X3.6865 Y3.2233
N2571 X3.6917 Y3.2261
N2572 X3.6964 Y3.2297
N2573 X3.7005 Y3.2339
N2574 X3.704 Y3.2387
N2575 X3.7068 Y3.2439
N2576 X3.7089 Y3.2494
N2577 X3.7104 Y3.2551
N2578 X3.7112 Y3.2609
N2579 X3.7113 Y3.2668
N2580 X3.7111 Y3.2686
N2581 X3.7092 Y3.2764
N2582 X3.7054 Y3.2833
N2583 X3.6998 Y3.289
N2584 X3.6928 Y3.2929
N2585 X3.6851 Y3.2948
N2586 X3.6771 Y3.2946
N2587 X3.6603 Y3.2917
N2588 X3.6546 Y3.2906
N2589 X3.65 Y3.2896
N2590 G3 X3.6424 Y3.2711 I0.0031 J-0.0121
N2591 G1 X3.6679 Y3.2278
N2592 G3 X3.6807 Y3.2219 I0.0108 J0.0064
N2593 G1 X3.7063 Y3.227
N2594 X3.712 Y3.2285
N2595 X3.7173 Y3.2312
N2596 X3.722 Y3.2347
N2597 X3.7261 Y3.239
N2598 X3.7296 Y3.2437
N2599 X3.7324 Y3.2489
N2600 X3.7346 Y3.2544
N2601 X3.736 Y3.2601
N2602 X3.7368 Y3.266
N2603 X3.7369 Y3.2719
N2604 X3.7368 Y3.2732
N2605 X3.7349 Y3.2809
N2606 X3.731 Y3.2878
N2607 X3.7254 Y3.2934
N2608 X3.7185 Y3.2973
N2609 X3.7108 Y3.2992
N2610 X3.7028 Y3.299
N2611 X3.6771 Y3.2946
N2612 G3 X3.6688 Y3.2761 I0.0025 J-0.0122
N2613 G1 X3.6934 Y3.2331
N2614 G3 X3.7014 Y3.2272 I0.0109 J0.0062
N2615 X3.7063 Y3.227 I0.0028 J0.0122
N2616 G1 X3.7178 Y3.2293
N2617 X3.7236 Y3.2303
N2618 X3.7293 Y3.2312
N2619 X3.7351 Y3.2324
N2620 X3.7405 Y3.2347
N2621 X3.7455 Y3.2379
N2622 X3.7499 Y3.2418
N2623 X3.7537 Y3.2463
N2624 X3.7568 Y3.2514
N2625 X3.7593 Y3.2567
N2626 X3.761 Y3.2624
N2627 X3.7621 Y3.2682
N2628 X3.7625 Y3.2741
N2629 X3.7623 Y3.2763
N2630 X3.7607 Y3.2843
N2631 X3.7569 Y3.2915
N2632 X3.7513 Y3.2974
N2633 X3.7443 Y3.3015
N2634 X3.7364 Y3.3035
N2635 X3.7283 Y3.3033
N2636 X3.7028 Y3.299
N2637 G3 X3.6943 Y3.281 I0.0025 J-0.0122
N2638 G1 X3.7167 Y3.2378
N2639 G3 X3.7293 Y3.2312 I0.0111 J0.0058
N2640 G1 X3.735 Y3.2321
N2641 X3.7408 Y3.2329
N2642 X3.754 Y3.2346
N2643 X3.7598 Y3.2357
N2644 X3.7653 Y3.2378
N2645 X3.7704 Y3.2409
N2646 X3.7748 Y3.2448
N2647 X3.7787 Y3.2492
N2648 X3.7819 Y3.2542
N2649 X3.7845 Y3.2595
N2650 X3.7864 Y3.2651
N2651 X3.7876 Y3.2709
N2652 X3.7882 Y3.2767
N2653 X3.788 Y3.2826
N2654 X3.7879 Y3.2829
N2655 X3.7853 Y3.2917
N2656 X3.78 Y3.2991
N2657 X3.7728 Y3.3046
N2658 X3.7642 Y3.3076
N2659 X3.7551 Y3.3078
N2660 X3.7523 Y3.3074
N2661 X3.7283 Y3.3033
N2662 G3 X3.7197 Y3.2855 I0.0025 J-0.0122
N2663 G1 X3.7417 Y3.2415
N2664 G3 X3.7492 Y3.2351 I0.0112 J0.0056
N2665 X3.754 Y3.2346 I0.0037 J0.0119
N2666 G1 X3.7798 Y3.2379
N2667 X3.7857 Y3.2389
N2668 X3.7911 Y3.2412
N2669 X3.7961 Y3.2443
N2670 X3.8006 Y3.2482
N2671 X3.8045 Y3.2526
N2672 X3.8078 Y3.2575
N2673 X3.8104 Y3.2628
N2674 X3.8124 Y3.2684
N2675 X3.8136 Y3.2741
N2676 X3.8142 Y3.28
N2677 Y3.2822
N2678 X3.813 Y3.2902
N2679 X3.8097 Y3.2975
N2680 X3.8045 Y3.3036
N2681 X3.7978 Y3.3081
N2682 X3.7901 Y3.3106
N2683 X3.7821 Y3.3109
N2684 X3.7753 Y3.3102
N2685 X3.758 Y3.3082
N2686 X3.7551 Y3.3078
N2687 G3 X3.7459 Y3.2901 I0.0021 J-0.0123
N2688 G1 X3.7674 Y3.245
N2689 G3 X3.7798 Y3.2379 I0.0113 J0.0054
N2690 G1 X3.8057 Y3.2412
N2691 X3.8115 Y3.2422
N2692 X3.817 Y3.2444
N2693 X3.822 Y3.2475
N2694 X3.8265 Y3.2514
N2695 X3.8304 Y3.2558
N2696 X3.8337 Y3.2607
N2697 X3.8363 Y3.266
N2698 X3.8383 Y3.2716
N2699 X3.8396 Y3.2774
N2700 X3.8401 Y3.2832
N2701 Y3.285
N2702 X3.8389 Y3.293
N2703 X3.8355 Y3.3002
N2704 X3.8303 Y3.3063
N2705 X3.8236 Y3.3108
N2706 X3.816 Y3.3133
N2707 X3.808 Y3.3136
N2708 X3.7821 Y3.3109
N2709 G3 X3.7775 Y3.3093 I0.0017 J-0.0124
N2710 X3.7724 Y3.2933 I0.0063 J-0.0108
N2711 G1 X3.7933 Y3.2484
N2712 G3 X3.8009 Y3.2417 I0.0113 J0.0053
N2713 X3.8057 Y3.2412 I0.0037 J0.0119
N2714 G1 X3.8316 Y3.2445
N2715 X3.8374 Y3.2455
N2716 X3.8429 Y3.2477
N2717 X3.8479 Y3.2508
N2718 X3.8524 Y3.2546
N2719 X3.8563 Y3.2591
N2720 X3.8595 Y3.264
N2721 X3.8622 Y3.2693
N2722 X3.8641 Y3.2749
N2723 X3.8653 Y3.2806
N2724 X3.8659 Y3.2865
N2725 X3.8658 Y3.2879
N2726 X3.8646 Y3.2957
N2727 X3.8612 Y3.303
N2728 X3.856 Y3.309
N2729 X3.8493 Y3.3134
N2730 X3.8417 Y3.3159
N2731 X3.8337 Y3.3162
N2732 X3.808 Y3.3136
N2733 G3 X3.7984 Y3.2959 I0.0017 J-0.0124
N2734 G1 X3.8191 Y3.2516
N2735 G3 X3.8316 Y3.2445 I0.0113 J0.0053
N2736 G1 X3.8327 Y3.2446
N2737 X3.8385 Y3.2451
N2738 X3.85 Y3.2459
N2739 X3.8557 Y3.2462
N2740 X3.8616 Y3.2468
N2741 X3.8672 Y3.2488
N2742 X3.8723 Y3.2517
N2743 X3.8769 Y3.2554
N2744 X3.881 Y3.2597
N2745 X3.8844 Y3.2645
N2746 X3.8873 Y3.2696
N2747 X3.8894 Y3.2751
N2748 X3.8909 Y3.2809
N2749 X3.8917 Y3.2867
N2750 X3.8918 Y3.2893
N2751 X3.8907 Y3.2974
N2752 X3.8875 Y3.3048
N2753 X3.8824 Y3.3111
N2754 X3.8757 Y3.3158
N2755 X3.868 Y3.3184
N2756 X3.8599 Y3.3187
N2757 X3.85 Y3.3178
N2758 X3.8337 Y3.3162
N2759 G3 X3.8291 Y3.3146 I0.0017 J-0.0124
N2760 X3.824 Y3.2987 I0.0063 J-0.0108
N2761 G1 X3.844 Y3.2536
N2762 G3 X3.8557 Y3.2462 I0.0114 J0.0051
N2763 G1 X3.8804 Y3.2476
N2764 X3.8863 Y3.2482
N2765 X3.8919 Y3.25
N2766 X3.8972 Y3.2527
N2767 X3.9019 Y3.2562
N2768 X3.9061 Y3.2604
N2769 X3.9097 Y3.2651
N2770 X3.9127 Y3.2702
N2771 X3.915 Y3.2756
N2772 X3.9167 Y3.2812
N2773 X3.9177 Y3.2871
N2774 X3.9179 Y3.2897
N2775 X3.9172 Y3.2977
N2776 X3.9143 Y3.3052
N2777 X3.9095 Y3.3116
N2778 X3.9032 Y3.3165
N2779 X3.8957 Y3.3195
N2780 X3.8877 Y3.3203
N2781 X3.8729 Y3.3198
N2782 X3.8672 Y3.3194
N2783 X3.8599 Y3.3187
N2784 G3 X3.8553 Y3.3172 I0.0016 J-0.0124
N2785 X3.8499 Y3.3017 I0.0062 J-0.0108
N2786 G1 X3.8686 Y3.2554
N2787 G3 X3.8756 Y3.2484 I0.0116 J0.0047
N2788 X3.8804 Y3.2476 I0.0046 J0.0116
N2789 G1 X3.9074 Y3.249
N2790 X3.9133 Y3.2496
N2791 X3.9189 Y3.2516
N2792 X3.924 Y3.2545
N2793 X3.9287 Y3.2582
N2794 X3.9328 Y3.2624
N2795 X3.9363 Y3.2671
N2796 X3.9392 Y3.2723
N2797 X3.9414 Y3.2777
N2798 X3.9431 Y3.2834
N2799 X3.944 Y3.2893
N2800 Y3.2909
N2801 X3.9432 Y3.2988
N2802 X3.9404 Y3.3062
N2803 X3.9356 Y3.3126
N2804 X3.9292 Y3.3174
N2805 X3.9218 Y3.3204
N2806 X3.9139 Y3.3212
N2807 X3.8877 Y3.3203
N2808 G3 X3.877 Y3.3032 I0.0009 J-0.0125
N2809 G1 X3.8956 Y3.2569
N2810 G3 X3.9026 Y3.2499 I0.0116 J0.0047
N2811 X3.9074 Y3.249 I0.0046 J0.0116
N2812 G1 X3.9336 Y3.2504
N2813 X3.9394 Y3.2511
N2814 X3.945 Y3.253
N2815 X3.9502 Y3.2559
N2816 X3.9548 Y3.2595
N2817 X3.9589 Y3.2638
N2818 X3.9624 Y3.2685
N2819 X3.9653 Y3.2737
N2820 X3.9675 Y3.2792
N2821 X3.9691 Y3.2849
N2822 X3.97 Y3.2907
N2823 Y3.292
N2824 X3.9692 Y3.2998
N2825 X3.9663 Y3.3072
N2826 X3.9615 Y3.3135
N2827 X3.9552 Y3.3183
N2828 X3.9478 Y3.3212
N2829 X3.9399 Y3.3221
N2830 X3.9139 Y3.3212
N2831 G3 X3.9032 Y3.304 I0.0009 J-0.0125
N2832 G1 X3.9218 Y3.2582
N2833 G3 X3.9288 Y3.2513 I0.0116 J0.0047
N2834 X3.9336 Y3.2504 I0.0046 J0.0116
N2835 G1 X3.9476 Y3.2512
N2836 X3.9566 Y3.2511
N2837 X3.9625 Y3.2513
N2838 X3.9682 Y3.2527
N2839 X3.9735 Y3.2552
N2840 X3.9785 Y3.2585
N2841 X3.9829 Y3.2624
N2842 X3.9867 Y3.2669
N2843 X3.9899 Y3.2719
N2844 X3.9925 Y3.2772
N2845 X3.9944 Y3.2828
N2846 X3.9956 Y3.2886
N2847 X3.9958 Y3.2912
N2848 X3.9954 Y3.2993
N2849 X3.9928 Y3.3069
N2850 X3.9882 Y3.3136
N2851 X3.9819 Y3.3187
N2852 X3.9745 Y3.3219
N2853 X3.9665 Y3.3229
N2854 X3.9649
N2855 X3.9399 Y3.3221
N2856 G3 X3.929 Y3.3054 I0.0009 J-0.0125
N2857 G1 X3.9454 Y3.2594
N2858 G3 X3.9566 Y3.2511 I0.0118 J0.0042
N2859 G1 X3.9764 Y3.2508
N2860 X3.9821 Y3.2507
N2861 X3.988 Y3.2508
N2862 X3.9937 Y3.2523
N2863 X3.9991 Y3.2548
N2864 X4.0041 Y3.258
N2865 X4.0085 Y3.2619
N2866 X4.0124 Y3.2664
N2867 X4.0157 Y3.2713
N2868 X4.0183 Y3.2765
N2869 X4.0203 Y3.2821
N2870 X4.0217 Y3.2878
N2871 X4.022 Y3.2903
N2872 X4.0217 Y3.2983
N2873 X4.0194 Y3.3059
N2874 X4.015 Y3.3126
N2875 X4.009 Y3.3179
N2876 X4.0018 Y3.3213
N2877 X3.994 Y3.3227
N2878 X3.9879 Y3.3229
N2879 X3.9821 Y3.323
N2880 X3.9684 Y3.3229
N2881 X3.9665
N2882 G3 X3.9552 Y3.3065 I0.0006 J-0.0125
N2883 G1 X3.9709 Y3.2592
N2884 G3 X3.9774 Y3.2519 I0.0119 J0.0039
N2885 X3.9821 Y3.2507 I0.0054 J0.0113
N2886 G1 X4.0083 Y3.2502
N2887 X4.0142 Y3.2504
N2888 X4.0199 Y3.2519
N2889 X4.0252 Y3.2544
N2890 X4.0302 Y3.2576
N2891 X4.0346 Y3.2615
N2892 X4.0385 Y3.2659
N2893 X4.0418 Y3.2708
N2894 X4.0445 Y3.2761
N2895 X4.0465 Y3.2816
N2896 X4.0479 Y3.2874
N2897 X4.0481 Y3.2893
N2898 X4.0479 Y3.2973
N2899 X4.0456 Y3.305
N2900 X4.0412 Y3.3117
N2901 X4.0352 Y3.317
N2902 X4.028 Y3.3204
N2903 X4.0201 Y3.3218
N2904 X3.994 Y3.3227
N2905 G3 X3.9892 Y3.3217 I0 J-0.0125
N2906 X3.982 Y3.3064 I0.0048 J-0.0115
N2907 G1 X3.997 Y3.2589
N2908 G3 X4.0035 Y3.2514 I0.0119 J0.0038
N2909 X4.0083 Y3.2502 I0.0054 J0.0113
N2910 G1 X4.0338 Y3.2497
N2911 X4.0397 Y3.2499
N2912 X4.0455 Y3.2513
N2913 X4.0509 Y3.2537
N2914 X4.0559 Y3.2568
N2915 X4.0604 Y3.2607
N2916 X4.0643 Y3.2651
N2917 X4.0677 Y3.2699
N2918 X4.0703 Y3.2752
N2919 X4.0724 Y3.2807
N2920 X4.0738 Y3.2865
N2921 X4.074 Y3.2883
N2922 X4.0739 Y3.2963
N2923 X4.0716 Y3.304
N2924 X4.0673 Y3.3108
N2925 X4.0612 Y3.3161
N2926 X4.054 Y3.3196
N2927 X4.0461 Y3.3209
N2928 X4.0201 Y3.3218
N2929 G3 X4.0082 Y3.3057 I0 J-0.0125
N2930 G1 X4.0225 Y3.2586
N2931 G3 X4.0291 Y3.2509 I0.012 J0.0037
N2932 X4.0338 Y3.2497 I0.0054 J0.0113
N2933 G1 X4.0453 Y3.2495
N2934 X4.0568 Y3.2492
N2935 X4.06 Y3.2491
N2936 X4.0659 Y3.2492
N2937 X4.0716 Y3.2506
N2938 X4.077 Y3.253
N2939 X4.082 Y3.2562
N2940 X4.0865 Y3.26
N2941 X4.0904 Y3.2645
N2942 X4.0937 Y3.2693
N2943 X4.0964 Y3.2746
N2944 X4.0984 Y3.2801
N2945 X4.0998 Y3.2859
N2946 X4.1 Y3.2875
N2947 X4.0998 Y3.2955
N2948 X4.0975 Y3.3032
N2949 X4.0932 Y3.3099
N2950 X4.0871 Y3.3152
N2951 X4.0799 Y3.3187
N2952 X4.072 Y3.3201
N2953 X4.0461 Y3.3209
N2954 G3 X4.0342 Y3.3047 I0 J-0.0125
N2955 G1 X4.0489 Y3.2578
N2956 G3 X4.06 Y3.2491 I0.0119 J0.0038
N2957 G1 X4.0626 Y3.249
N2958 X4.083 Y3.2472
N2959 X4.0889 Y3.2469
N2960 X4.0947 Y3.2479
N2961 X4.1002 Y3.2499
N2962 X4.1054 Y3.2528
N2963 X4.1102 Y3.2563
N2964 X4.1143 Y3.2604
N2965 X4.118 Y3.2651
N2966 X4.1211 Y3.2701
N2967 X4.1235 Y3.2755
N2968 X4.1252 Y3.2812
N2969 X4.1257 Y3.2837
N2970 X4.1261 Y3.2918
N2971 X4.1242 Y3.2996
N2972 X4.1203 Y3.3066
N2973 X4.1146 Y3.3123
N2974 X4.1076 Y3.3163
N2975 X4.0998 Y3.3181
N2976 X4.0856 Y3.3194
N2977 X4.0798 Y3.3198
N2978 X4.072 Y3.3201
N2979 G3 X4.0599 Y3.3044 I0 J-0.0125
N2980 G1 X4.0724 Y3.2564
N2981 G3 X4.0783 Y3.2487 I0.0121 J0.0031
N2982 X4.083 Y3.2472 I0.0062 J0.0109
N2983 G1 X4.1085 Y3.2448
N2984 X4.1144 Y3.2446
N2985 X4.1203 Y3.2455
N2986 X4.1258 Y3.2475
N2987 X4.131 Y3.2503
N2988 X4.1358 Y3.2538
N2989 X4.14 Y3.2579
N2990 X4.1438 Y3.2625
N2991 X4.1469 Y3.2675
N2992 X4.1493 Y3.2729
N2993 X4.1512 Y3.2785
N2994 X4.1516 Y3.2807
N2995 X4.1521 Y3.2888
N2996 X4.1504 Y3.2967
N2997 X4.1465 Y3.3038
N2998 X4.1409 Y3.3095
N2999 X4.1338 Y3.3135
N3000 X4.126 Y3.3155
N3001 X4.1011 Y3.318
N3002 X4.0998 Y3.3181
N3003 G3 X4.0949 Y3.3174 I-0.0007 J-0.0125
N3004 X4.0869 Y3.3028 I0.0041 J-0.0118
N3005 G1 X4.0979 Y3.2545
N3006 G3 X4.1085 Y3.2448 I0.0122 J0.0028
N3007 G1 X4.1347 Y3.2425
N3008 X4.1406 Y3.2422
N3009 X4.1464 Y3.2432
N3010 X4.152 Y3.2452
N3011 X4.1572 Y3.248
N3012 X4.1619 Y3.2515
N3013 X4.1661 Y3.2556
N3014 X4.1698 Y3.2602
N3015 X4.1729 Y3.2653
N3016 X4.1754 Y3.2707
N3017 X4.1772 Y3.2763
N3018 X4.1776 Y3.2782
N3019 X4.178 Y3.2862
N3020 X4.1762 Y3.2941
N3021 X4.1724 Y3.3012
N3022 X4.1667 Y3.3069
N3023 X4.1597 Y3.3109
N3024 X4.1519 Y3.3128
N3025 X4.126 Y3.3155
N3026 G3 X4.113 Y3.3002 I-0.0008 J-0.0125
N3027 G1 X4.1241 Y3.2521
N3028 G3 X4.1301 Y3.244 I0.0122 J0.0028
N3029 X4.1347 Y3.2425 I0.0062 J0.0109
N3030 G1 X4.1603 Y3.2402
N3031 X4.1662 Y3.2399
N3032 X4.172 Y3.2408
N3033 X4.1776 Y3.2427
N3034 X4.1828 Y3.2455
N3035 X4.1876 Y3.249
N3036 X4.1918 Y3.2531
N3037 X4.1956 Y3.2576
N3038 X4.1986 Y3.2627
N3039 X4.2011 Y3.268
N3040 X4.203 Y3.2736
N3041 X4.2033 Y3.2755
N3042 X4.2038 Y3.2835
N3043 X4.2021 Y3.2913
N3044 X4.1983 Y3.2984
N3045 X4.1927 Y3.3041
N3046 X4.1858 Y3.3082
N3047 X4.1781 Y3.3102
N3048 X4.1519 Y3.3128
N3049 G3 X4.147 Y3.3122 I-0.0008 J-0.0125
N3050 X4.1389 Y3.2976 I0.004 J-0.0118
N3051 G1 X4.1496 Y3.2498
N3052 G3 X4.1603 Y3.2402 I0.0122 J0.0027
N3053 G1 X4.166 Y3.2396
N3054 X4.1717 Y3.2389
N3055 X4.1775 Y3.2381
N3056 X4.1832 Y3.2371
N3057 X4.1891 Y3.2365
N3058 X4.195 Y3.2369
N3059 X4.2007 Y3.2385
N3060 X4.2061 Y3.2409
N3061 X4.2111 Y3.244
N3062 X4.2156 Y3.2478
N3063 X4.2196 Y3.2522
N3064 X4.223 Y3.257
N3065 X4.2258 Y3.2622
N3066 X4.228 Y3.2677
N3067 X4.2295 Y3.2735
N3068 X4.2294 Y3.2825
N3069 X4.2266 Y3.291
N3070 X4.2214 Y3.2983
N3071 X4.2141 Y3.3037
N3072 X4.2056 Y3.3065
N3073 X4.2005 Y3.3074
N3074 X4.1947 Y3.3082
N3075 X4.1781 Y3.3102
N3076 G3 X4.1732 Y3.3096 I-0.001 J-0.0125
N3077 X4.1648 Y3.2955 I0.0038 J-0.0119
N3078 G1 X4.1734 Y3.2472
N3079 G3 X4.1832 Y3.2371 I0.0123 J0.0022
N3080 G1 X4.2094 Y3.2328
N3081 X4.2152 Y3.2322
N3082 X4.2211 Y3.2328
N3083 X4.2268 Y3.2345
N3084 X4.2321 Y3.2369
N3085 X4.2371 Y3.2401
N3086 X4.2416 Y3.244
N3087 X4.2456 Y3.2483
N3088 X4.249 Y3.2531
N3089 X4.2518 Y3.2583
N3090 X4.254 Y3.2638
N3091 X4.2545 Y3.2657
N3092 X4.2555 Y3.2737
N3093 X4.2543 Y3.2817
N3094 X4.251 Y3.2891
N3095 X4.2457 Y3.2952
N3096 X4.239 Y3.2997
N3097 X4.2313 Y3.3021
N3098 X4.2056 Y3.3065
N3099 G3 X4.1916 Y3.2921 I-0.0017 J-0.0124
N3100 G1 X4.1995 Y3.2431
N3101 G3 X4.2049 Y3.2347 I0.0123 J0.002
N3102 X4.2094 Y3.2328 I0.007 J0.0104
N3103 G1 X4.2349 Y3.2287
N3104 X4.2408 Y3.228
N3105 X4.2467 Y3.2286
N3106 X4.2524 Y3.2302
N3107 X4.2578 Y3.2326
N3108 X4.2627 Y3.2358
N3109 X4.2672 Y3.2396
N3110 X4.2712 Y3.2439
N3111 X4.2747 Y3.2488
N3112 X4.2775 Y3.254
N3113 X4.2797 Y3.2594
N3114 X4.2802 Y3.2614
N3115 X4.2812 Y3.2694
N3116 X4.28 Y3.2774
N3117 X4.2766 Y3.2847
N3118 X4.2714 Y3.2909
N3119 X4.2647 Y3.2953
N3120 X4.257 Y3.2978
N3121 X4.2313 Y3.3021
N3122 G3 X4.2264 Y3.3018 I-0.0017 J-0.0124
N3123 X4.2173 Y3.2878 I0.0032 J-0.0121
N3124 G1 X4.2251 Y3.2389
N3125 G3 X4.2349 Y3.2287 I0.0123 J0.002
N3126 G1 X4.2611 Y3.2244
N3127 X4.267 Y3.2237
N3128 X4.2728 Y3.2244
N3129 X4.2785 Y3.2261
N3130 X4.2838 Y3.2285
N3131 X4.2888 Y3.2318
N3132 X4.2933 Y3.2356
N3133 X4.2972 Y3.24
N3134 X4.3006 Y3.2449
N3135 X4.3034 Y3.2501
N3136 X4.3055 Y3.2556
N3137 X4.306 Y3.2573
N3138 X4.3069 Y3.2653
N3139 X4.3056 Y3.2732
N3140 X4.3022 Y3.2805
N3141 X4.297 Y3.2865
N3142 X4.2903 Y3.291
N3143 X4.2826 Y3.2934
N3144 X4.257 Y3.2978
N3145 G3 X4.243 Y3.2833 I-0.0017 J-0.0124
N3146 G1 X4.2512 Y3.2345
N3147 G3 X4.2566 Y3.2262 I0.0123 J0.0021
N3148 X4.2611 Y3.2244 I0.007 J0.0104
N3149 G1 X4.2694 Y3.223
N3150 X4.2809 Y3.221
N3151 X4.2841 Y3.2203
N3152 X4.2899 Y3.2193
N3153 X4.2958 Y3.2194
N3154 X4.3016 Y3.2207
N3155 X4.3071 Y3.2228
N3156 X4.3122 Y3.2257
N3157 X4.3169 Y3.2293
N3158 X4.3211 Y3.2335
N3159 X4.3248 Y3.2381
N3160 X4.3278 Y3.2432
N3161 X4.3298 Y3.2474
N3162 X4.3322 Y3.2557
N3163 X4.332 Y3.2644
N3164 X4.3294 Y3.2726
N3165 X4.3244 Y3.2797
N3166 X4.3176 Y3.285
N3167 X4.3095 Y3.2881
N3168 X4.2982 Y3.2906
N3169 X4.2924 Y3.2917
N3170 X4.2826 Y3.2934
N3171 G3 X4.2686 Y3.2794 I-0.0017 J-0.0124
N3172 G1 X4.2748 Y3.2308
N3173 G3 X4.2841 Y3.2203 I0.0124 J0.0016
N3174 G1 X4.2886 Y3.2192
N3175 X4.3096 Y3.2142
N3176 X4.3155 Y3.2131
N3177 X4.3213 Y3.2134
N3178 X4.3271 Y3.2148
N3179 X4.3326 Y3.217
N3180 X4.3377 Y3.22
N3181 X4.3424 Y3.2236
N3182 X4.3466 Y3.2277
N3183 X4.3502 Y3.2323
N3184 X4.3533 Y3.2374
N3185 X4.3558 Y3.2427
N3186 X4.3563 Y3.2444
N3187 X4.3578 Y3.2523
N3188 X4.357 Y3.2602
N3189 X4.3542 Y3.2677
N3190 X4.3493 Y3.2741
N3191 X4.3429 Y3.279
N3192 X4.3355 Y3.2819
N3193 X4.3154 Y3.2868
N3194 X4.3095 Y3.2881
N3195 G3 X4.2949 Y3.2743 I-0.0023 J-0.0123
N3196 G1 X4.3006 Y3.2248
N3197 G3 X4.3096 Y3.2142 I0.0124 J0.0014
N3198 G1 X4.3348 Y3.2082
N3199 X4.3406 Y3.2071
N3200 X4.3465 Y3.2074
N3201 X4.3523 Y3.2087
N3202 X4.3578 Y3.2109
N3203 X4.3629 Y3.2138
N3204 X4.3676 Y3.2174
N3205 X4.3719 Y3.2215
N3206 X4.3755 Y3.2261
N3207 X4.3787 Y3.2311
N3208 X4.3812 Y3.2365
N3209 X4.3817 Y3.2383
N3210 X4.3832 Y3.2461
N3211 X4.3824 Y3.2541
N3212 X4.3796 Y3.2616
N3213 X4.3747 Y3.268
N3214 X4.3683 Y3.2729
N3215 X4.3609 Y3.2758
N3216 X4.3355 Y3.2819
N3217 G3 X4.3206 Y3.2684 I-0.0025 J-0.0122
N3218 G1 X4.3257 Y3.2189
N3219 G3 X4.3348 Y3.2082 I0.0124 J0.0013
N3220 G1 X4.3584 Y3.2025
N3221 X4.3642 Y3.2014
N3222 X4.3701
N3223 X4.3759 Y3.2024
N3224 X4.3815 Y3.2043
N3225 X4.3868 Y3.207
N3226 X4.3916 Y3.2103
N3227 X4.396 Y3.2143
N3228 X4.3998 Y3.2188
N3229 X4.4031 Y3.2237
N3230 X4.4058 Y3.2289
N3231 X4.4067 Y3.2313
N3232 X4.4084 Y3.2393
N3233 X4.4078 Y3.2475
N3234 X4.405 Y3.2551
N3235 X4.4002 Y3.2617
N3236 X4.3937 Y3.2667
N3237 X4.3862 Y3.2697
N3238 X4.3609 Y3.2758
N3239 G3 X4.3459 Y3.2627 I-0.0025 J-0.0122
N3240 G1 X4.3492 Y3.2137
N3241 G3 X4.3584 Y3.2025 I0.0125 J0.0008
N3242 G1 X4.3843 Y3.1963
N3243 X4.3902 Y3.1952
N3244 X4.3961 Y3.1953
N3245 X4.4019 Y3.1965
N3246 X4.4074 Y3.1984
N3247 X4.4126 Y3.2012
N3248 X4.4174 Y3.2047
N3249 X4.4218 Y3.2087
N3250 X4.4255 Y3.2132
N3251 X4.4288 Y3.2182
N3252 X4.4314 Y3.2235
N3253 X4.432 Y3.2251
N3254 X4.4336 Y3.2343
N3255 X4.4323 Y3.2436
N3256 X4.4281 Y3.2519
N3257 X4.4215 Y3.2585
N3258 X4.4132 Y3.2627
N3259 X4.4073 Y3.2644
N3260 X4.3879 Y3.2693
N3261 X4.3862 Y3.2697
N3262 G3 X4.3813 I-0.0025 J-0.0122
N3263 X4.3712 Y3.2564 I0.0024 J-0.0123
N3264 G1 X4.3752 Y3.2073
N3265 G3 X4.3843 Y3.1963 I0.0125 J0.001
N3266 G1 X4.3958 Y3.1929
N3267 X4.4036 Y3.1905
N3268 X4.4073 Y3.1893
N3269 X4.413 Y3.1878
N3270 X4.4189 Y3.1877
N3271 X4.4248 Y3.1885
N3272 X4.4304 Y3.1903
N3273 X4.4358 Y3.1928
N3274 X4.4407 Y3.1961
N3275 X4.4452 Y3.1999
N3276 X4.4492 Y3.2042
N3277 X4.4527 Y3.209
N3278 X4.4556 Y3.2142
N3279 X4.4562 Y3.2158
N3280 X4.4583 Y3.2236
N3281 X4.4581 Y3.2317
N3282 X4.4558 Y3.2394
N3283 X4.4514 Y3.2461
N3284 X4.4453 Y3.2514
N3285 X4.4381 Y3.2549
N3286 X4.4132 Y3.2627
N3287 G3 X4.3974 Y3.2502 I-0.0033 J-0.0121
N3288 G1 X4.399 Y3.2007
N3289 G3 X4.4031 Y3.1918 I0.0125 J0.0004
N3290 X4.4073 Y3.1893 I0.0084 J0.0093
N3291 G1 X4.4321 Y3.1815
N3292 X4.4378 Y3.18
N3293 X4.4437 Y3.1798
N3294 X4.4495 Y3.1807
N3295 X4.4552 Y3.1824
N3296 X4.4605 Y3.185
N3297 X4.4655 Y3.1882
N3298 X4.47 Y3.1919
N3299 X4.474 Y3.1963
N3300 X4.4775 Y3.201
N3301 X4.4804 Y3.2062
N3302 X4.4812 Y3.208
N3303 X4.4832 Y3.2158
N3304 X4.483 Y3.2239
N3305 X4.4807 Y3.2316
N3306 X4.4763 Y3.2383
N3307 X4.4702 Y3.2436
N3308 X4.463 Y3.2471
N3309 X4.4381 Y3.2549
N3310 G3 X4.4222 Y3.2425 I-0.0033 J-0.0121
N3311 G1 X4.4237 Y3.1929
N3312 G3 X4.4279 Y3.184 I0.0125 J0.0004
N3313 X4.4321 Y3.1815 I0.0084 J0.0093
N3314 G1 X4.4558 Y3.1739
N3315 X4.4616 Y3.1724
N3316 X4.4674 Y3.1721
N3317 X4.4733 Y3.1728
N3318 X4.479 Y3.1743
N3319 X4.4844 Y3.1767
N3320 X4.4894 Y3.1798
N3321 X4.4941 Y3.1834
N3322 X4.4982 Y3.1877
N3323 X4.5018 Y3.1924
N3324 X4.5048 Y3.1975
N3325 X4.5058 Y3.1997
N3326 X4.508 Y3.2076
N3327 X4.5079 Y3.2157
N3328 X4.5056 Y3.2235
N3329 X4.5013 Y3.2304
N3330 X4.4952 Y3.2358
N3331 X4.4878 Y3.2393
N3332 X4.463 Y3.2471
N3333 G3 X4.4471 Y3.2349 I-0.0033 J-0.0121
N3334 G1 X4.4475 Y3.1856
N3335 G3 X4.4558 Y3.1739 I0.0125 J0.0001
N3336 G1 X4.4809 Y3.166
N3337 X4.4866 Y3.1645
N3338 X4.4925 Y3.1642
N3339 X4.4983 Y3.1649
N3340 X4.504 Y3.1665
N3341 X4.5094 Y3.1689
N3342 X4.5144 Y3.172
N3343 X4.5191 Y3.1757
N3344 X4.5231 Y3.18
N3345 X4.5267 Y3.1847
N3346 X4.5297 Y3.1898
N3347 X4.5305 Y3.1916
N3348 X4.5327 Y3.1992
N3349 Y3.207
N3350 X4.5307 Y3.2146
N3351 X4.5267 Y3.2214
N3352 X4.521 Y3.2268
N3353 X4.5141 Y3.2306
N3354 X4.5108 Y3.2319
N3355 X4.505 Y3.2339
N3356 X4.4878 Y3.2393
N3357 G3 X4.4829 Y3.2396 I-0.0033 J-0.0121
N3358 X4.472 Y3.2271 I0.0015 J-0.0124
N3359 G1 X4.4726 Y3.1776
N3360 G3 X4.4809 Y3.166 I0.0125 J0.0001
N3361 G1 X4.4878 Y3.1638
N3362 X4.4993 Y3.1598
N3363 X4.5039 Y3.1579
N3364 X4.5094 Y3.156
N3365 X4.5153 Y3.1555
N3366 X4.5212 Y3.1559
N3367 X4.5269 Y3.1573
N3368 X4.5324 Y3.1595
N3369 X4.5376 Y3.1624
N3370 X4.5423 Y3.1659
N3371 X4.5466 Y3.17
N3372 X4.5503 Y3.1746
N3373 X4.5535 Y3.1795
N3374 X4.5544 Y3.1813
N3375 X4.5568 Y3.1889
N3376 X4.5572 Y3.1968
N3377 X4.5553 Y3.2046
N3378 X4.5514 Y3.2116
N3379 X4.5457 Y3.2172
N3380 X4.5387 Y3.2211
N3381 X4.528 Y3.2253
N3382 X4.5141 Y3.2306
N3383 G3 X4.5093 Y3.2312 I-0.004 J-0.0118
N3384 X4.4976 Y3.2191 I0.0008 J-0.0125
N3385 G1 X4.4964 Y3.1697
N3386 G3 X4.5039 Y3.1579 I0.0125 J-0.0003
N3387 G1 X4.528 Y3.1483
N3388 X4.5336 Y3.1464
N3389 X4.5395 Y3.1459
N3390 X4.5454 Y3.1464
N3391 X4.5511 Y3.1478
N3392 X4.5566 Y3.15
N3393 X4.5617 Y3.1528
N3394 X4.5665 Y3.1563
N3395 X4.5708 Y3.1604
N3396 X4.5746 Y3.1649
N3397 X4.5778 Y3.1699
N3398 X4.5786 Y3.1716
N3399 X4.5811 Y3.1792
N3400 X4.5815 Y3.1873
N3401 X4.5796 Y3.1951
N3402 X4.5757 Y3.2021
N3403 X4.57 Y3.2078
N3404 X4.563 Y3.2117
N3405 X4.5387 Y3.2211
N3406 G3 X4.5221 Y3.2097 I-0.0041 J-0.0118
N3407 G1 X4.5205 Y3.1601
N3408 G3 X4.524 Y3.1511 I0.0125 J-0.0004
N3409 X4.528 Y3.1483 I0.009 J0.0086
N3410 G1 X4.551 Y3.1391
N3411 X4.5566 Y3.1372
N3412 X4.5624 Y3.1365
N3413 X4.5683 Y3.1368
N3414 X4.5741 Y3.138
N3415 X4.5797 Y3.1399
N3416 X4.5849 Y3.1427
N3417 X4.5898 Y3.146
N3418 X4.5942 Y3.15
N3419 X4.5981 Y3.1544
N3420 X4.6014 Y3.1593
N3421 X4.6026 Y3.1615
N3422 X4.6053 Y3.1692
N3423 X4.6058 Y3.1773
N3424 X4.604 Y3.1853
N3425 X4.6001 Y3.1924
N3426 X4.5944 Y3.1982
N3427 X4.5873 Y3.2022
N3428 X4.563 Y3.2117
N3429 G3 X4.5464 Y3.2006 I-0.0041 J-0.0118
N3430 G1 X4.5435 Y3.1513
N3431 G3 X4.547 Y3.1419 I0.0125 J-0.0007
N3432 X4.551 Y3.1391 I0.009 J0.0086
N3433 G1 X4.5757 Y3.1293
N3434 X4.5813 Y3.1274
N3435 X4.5872 Y3.1268
N3436 X4.5931 Y3.1272
N3437 X4.5988 Y3.1284
N3438 X4.6044 Y3.1305
N3439 X4.6096 Y3.1333
N3440 X4.6144 Y3.1367
N3441 X4.6187 Y3.1407
N3442 X4.6226 Y3.1451
N3443 X4.6259 Y3.15
N3444 X4.6268 Y3.1518
N3445 X4.6295 Y3.1593
N3446 X4.63 Y3.1672
N3447 X4.6284 Y3.175
N3448 X4.6248 Y3.182
N3449 X4.6194 Y3.1878
N3450 X4.6126 Y3.1919
N3451 X4.6026 Y3.1962
N3452 X4.5873 Y3.2022
N3453 G3 X4.5707 Y3.191 I-0.0041 J-0.0118
N3454 G1 X4.5682 Y3.1414
N3455 G3 X4.5757 Y3.1293 I0.0125 J-0.0006
N3456 G1 X4.5912 Y3.1231
N3457 X4.5948 Y3.1216
N3458 X4.5987 Y3.1198
N3459 X4.6042 Y3.1176
N3460 X4.61 Y3.1167
N3461 X4.6159 Y3.1169
N3462 X4.6217 Y3.118
N3463 X4.6273 Y3.1199
N3464 X4.6326 Y3.1226
N3465 X4.6375 Y3.1259
N3466 X4.642 Y3.1297
N3467 X4.6459 Y3.1341
N3468 X4.6494 Y3.1389
N3469 X4.6502 Y3.1403
N3470 X4.653 Y3.1477
N3471 X4.6538 Y3.1556
N3472 X4.6524 Y3.1634
N3473 X4.6489 Y3.1705
N3474 X4.6437 Y3.1765
N3475 X4.637 Y3.1808
N3476 X4.6257 Y3.1861
N3477 X4.6199 Y3.1887
N3478 X4.6126 Y3.1919
N3479 G3 X4.5955 Y3.1812 I-0.0046 J-0.0116
N3480 G1 X4.5919 Y3.1318
N3481 G3 X4.5987 Y3.1198 I0.0125 J-0.0009
N3482 G1 X4.6142 Y3.1125
N3483 X4.6199 Y3.1097
N3484 X4.6254 Y3.1074
N3485 X4.6311 Y3.1062
N3486 X4.637 Y3.106
N3487 X4.6429 Y3.1067
N3488 X4.6486 Y3.1083
N3489 X4.654 Y3.1106
N3490 X4.6591 Y3.1136
N3491 X4.6638 Y3.1172
N3492 X4.668 Y3.1214
N3493 X4.6717 Y3.126
N3494 X4.673 Y3.1281
N3495 X4.6762 Y3.1356
N3496 X4.6773 Y3.1436
N3497 X4.6761 Y3.1517
N3498 X4.6727 Y3.1591
N3499 X4.6673 Y3.1653
N3500 X4.6605 Y3.1698
N3501 X4.637 Y3.1808
N3502 G3 X4.6323 Y3.1818 I-0.0049 J-0.0115
N3503 X4.6197 Y3.1709 I-0.0001 J-0.0125
N3504 G1 X4.6134 Y3.1224
N3505 G3 X4.6162 Y3.1128 I0.0124 J-0.0016
N3506 X4.6199 Y3.1097 I0.0096 J0.008
N3507 G1 X4.6429 Y3.0986
N3508 X4.6484 Y3.0963
N3509 X4.6541 Y3.095
N3510 X4.66 Y3.0947
N3511 X4.6659 Y3.0954
N3512 X4.6716 Y3.0969
N3513 X4.677 Y3.0992
N3514 X4.6822 Y3.1021
N3515 X4.6869 Y3.1057
N3516 X4.6911 Y3.1098
N3517 X4.6948 Y3.1144
N3518 X4.698 Y3.1194
N3519 X4.7007 Y3.1282
N3520 X4.7005 Y3.1374
N3521 X4.6975 Y3.1461
N3522 X4.6918 Y3.1534
N3523 X4.6842 Y3.1586
N3524 X4.6605 Y3.1698
N3525 G3 X4.6432 Y3.16 I-0.0049 J-0.0115
N3526 G1 X4.6364 Y3.1114
N3527 G3 X4.6391 Y3.1017 I0.0124 J-0.0017
N3528 X4.6429 Y3.0986 I0.0096 J0.008
N3529 G1 X4.6664 Y3.0872
N3530 X4.6718 Y3.0849
N3531 X4.6776 Y3.0836
N3532 X4.6835 Y3.0834
N3533 X4.6894 Y3.0841
N3534 X4.6951 Y3.0856
N3535 X4.7005 Y3.0878
N3536 X4.7056 Y3.0908
N3537 X4.7104 Y3.0943
N3538 X4.7146 Y3.0984
N3539 X4.7184 Y3.103
N3540 X4.7216 Y3.1079
N3541 X4.7217 Y3.1081
N3542 X4.7243 Y3.1167
N3543 Y3.1256
N3544 X4.7215 Y3.1341
N3545 X4.7163 Y3.1414
N3546 X4.7091 Y3.1467
N3547 X4.7061 Y3.1483
N3548 X4.6842 Y3.1586
N3549 G3 X4.6794 Y3.1596 I-0.0049 J-0.0115
N3550 X4.6669 Y3.1489 I-0.0001 J-0.0125
N3551 G1 X4.6599 Y3.1
N3552 G3 X4.6664 Y3.0872 I0.0124 J-0.0018
N3553 G1 X4.6889 Y3.0763
N3554 X4.69 Y3.0757
N3555 X4.6954 Y3.0732
N3556 X4.7011 Y3.072
N3557 X4.707 Y3.0718
N3558 X4.7129 Y3.0725
N3559 X4.7186 Y3.074
N3560 X4.7241 Y3.0763
N3561 X4.7292 Y3.0792
N3562 X4.7339 Y3.0827
N3563 X4.7382 Y3.0868
N3564 X4.742 Y3.0914
N3565 X4.7427 Y3.0926
N3566 X4.7461 Y3.0998
N3567 X4.7475 Y3.1076
N3568 X4.7466 Y3.1155
N3569 X4.7437 Y3.1229
N3570 X4.7389 Y3.1293
N3571 X4.7325 Y3.134
N3572 X4.7234 Y3.1391
N3573 X4.7176 Y3.1422
N3574 X4.7091 Y3.1467
N3575 G3 X4.7044 Y3.148 I-0.0055 J-0.0112
N3576 X4.6913 Y3.1374 I-0.0007 J-0.0125
N3577 G1 X4.6838 Y3.0885
N3578 G3 X4.69 Y3.0757 I0.0124 J-0.0019
N3579 G1 X4.701 Y3.07
N3580 X4.7061 Y3.0671
N3581 X4.7111 Y3.0642
N3582 X4.7164 Y3.0615
N3583 X4.722 Y3.06
N3584 X4.7279 Y3.0595
N3585 X4.7338 Y3.0599
N3586 X4.7396 Y3.0611
N3587 X4.7451 Y3.0631
N3588 X4.7504 Y3.0658
N3589 X4.7553 Y3.0692
N3590 X4.7597 Y3.0731
N3591 X4.7637 Y3.0775
N3592 X4.7649 Y3.0793
N3593 X4.7686 Y3.0865
N3594 X4.7701 Y3.0944
N3595 X4.7694 Y3.1025
N3596 X4.7665 Y3.1101
N3597 X4.7616 Y3.1166
N3598 X4.7552 Y3.1215
N3599 X4.7325 Y3.134
N3600 G3 X4.7278 Y3.1354 I-0.0057 J-0.0111
N3601 X4.7145 Y3.1252 I-0.001 J-0.0125
N3602 G1 X4.7054 Y3.0772
N3603 G3 X4.7111 Y3.0642 I0.0123 J-0.0023
N3604 G1 X4.7331 Y3.0515
N3605 X4.7384 Y3.0488
N3606 X4.744 Y3.0472
N3607 X4.7499 Y3.0466
N3608 X4.7558 Y3.047
N3609 X4.7616 Y3.0481
N3610 X4.7672 Y3.0501
N3611 X4.7725 Y3.0527
N3612 X4.7774 Y3.056
N3613 X4.7819 Y3.0598
N3614 X4.7859 Y3.0642
N3615 X4.7874 Y3.0663
N3616 X4.7912 Y3.0735
N3617 X4.7929 Y3.0815
N3618 X4.7922 Y3.0897
N3619 X4.7893 Y3.0974
N3620 X4.7844 Y3.1039
N3621 X4.7779 Y3.1088
N3622 X4.7552 Y3.1215
N3623 G3 X4.7505 Y3.1228 I-0.0057 J-0.0111
N3624 X4.7372 Y3.1128 I-0.001 J-0.0125
N3625 G1 X4.7275 Y3.0646
N3626 G3 X4.7331 Y3.0515 I0.0123 J-0.0025
N3627 G1 X4.7553 Y3.0387
N3628 X4.7605 Y3.0361
N3629 X4.7662 Y3.0344
N3630 X4.772 Y3.0337
N3631 X4.7779 Y3.034
N3632 X4.7837 Y3.0351
N3633 X4.7893 Y3.037
N3634 X4.7947 Y3.0395
N3635 X4.7996 Y3.0428
N3636 X4.8041 Y3.0465
N3637 X4.8082 Y3.0508
N3638 X4.8118 Y3.0557
N3639 X4.8151 Y3.0642
N3640 X4.8157 Y3.0733
N3641 X4.8134 Y3.0821
N3642 X4.8085 Y3.0898
N3643 X4.8014 Y3.0956
N3644 X4.7962 Y3.0987
N3645 X4.7779 Y3.1088
N3646 G3 X4.7732 Y3.1102 I-0.0057 J-0.0111
N3647 X4.76 Y3.1003 I-0.001 J-0.0125
N3648 G1 X4.7497 Y3.052
N3649 G3 X4.7553 Y3.0387 I0.0122 J-0.0026
N3650 G1 X4.7782 Y3.0255
N3651 X4.7834 Y3.0228
N3652 X4.7891 Y3.0212
N3653 X4.795 Y3.0207
N3654 X4.8009 Y3.021
N3655 X4.8067 Y3.0221
N3656 X4.8123 Y3.024
N3657 X4.8176 Y3.0266
N3658 X4.8225 Y3.0298
N3659 X4.8271 Y3.0336
N3660 X4.8311 Y3.0379
N3661 X4.832 Y3.0391
N3662 X4.8359 Y3.0461
N3663 X4.8377 Y3.0538
N3664 X4.8374 Y3.0618
N3665 X4.835 Y3.0693
N3666 X4.8306 Y3.076
N3667 X4.8245 Y3.0812
N3668 X4.8096 Y3.0908
N3669 X4.8014 Y3.0956
N3670 G3 X4.7968 Y3.0971 I-0.006 J-0.011
N3671 X4.7833 Y3.0873 I-0.0013 J-0.0124
N3672 G1 X4.7726 Y3.0388
N3673 G3 X4.7746 Y3.0289 I0.0122 J-0.0027
N3674 X4.7782 Y3.0255 I0.0102 J0.0073
N3675 G1 X4.7808 Y3.024
N3676 X4.7866 Y3.0206
N3677 X4.7994 Y3.0126
N3678 X4.8045 Y3.0096
N3679 X4.8101 Y3.0078
N3680 X4.816 Y3.007
N3681 X4.8219 Y3.0072
N3682 X4.8277 Y3.0081
N3683 X4.8334 Y3.0099
N3684 X4.8387 Y3.0124
N3685 X4.8437 Y3.0155
N3686 X4.8484 Y3.0192
N3687 X4.8525 Y3.0234
N3688 X4.8536 Y3.0247
N3689 X4.8575 Y3.0317
N3690 X4.8595 Y3.0395
N3691 X4.8592 Y3.0475
N3692 X4.8568 Y3.0551
N3693 X4.8524 Y3.0618
N3694 X4.8463 Y3.0671
N3695 X4.8245 Y3.0812
N3696 G3 X4.806 Y3.0733 I-0.0064 J-0.0107
N3697 G1 X4.7946 Y3.0256
N3698 G3 X4.7994 Y3.0126 I0.0122 J-0.0029
N3699 G1 X4.808 Y3.0068
N3700 X4.8201 Y2.9986
N3701 X4.8252 Y2.9955
N3702 X4.8307 Y2.9936
N3703 X4.8366 Y2.9927
N3704 X4.8425 Y2.9928
N3705 X4.8483 Y2.9936
N3706 X4.854 Y2.9952
N3707 X4.8594 Y2.9975
N3708 X4.8645 Y3.0006
N3709 X4.8692 Y3.0041
N3710 X4.8735 Y3.0082
N3711 X4.875 Y3.0101
N3712 X4.8792 Y3.017
N3713 X4.8813 Y3.0249
N3714 X4.8811 Y3.033
N3715 X4.8788 Y3.0408
N3716 X4.8743 Y3.0476
N3717 X4.8682 Y3.0529
N3718 X4.8463 Y3.0671
N3719 G3 X4.8278 Y3.0595 I-0.0064 J-0.0107
N3720 G1 X4.8154 Y3.0119
N3721 G3 X4.8168 Y3.0022 I0.0121 J-0.0032
N3722 X4.8201 Y2.9986 I0.0107 J0.0065
N3723 G1 X4.8418 Y2.9839
N3724 X4.8469 Y2.9808
N3725 X4.8525 Y2.979
N3726 X4.8583 Y2.9782
N3727 X4.8642
N3728 X4.8701 Y2.9791
N3729 X4.8758 Y2.9807
N3730 X4.8812 Y2.9831
N3731 X4.8863 Y2.9861
N3732 X4.891 Y2.9896
N3733 X4.8952 Y2.9937
N3734 X4.8969 Y2.9958
N3735 X4.9011 Y3.0027
N3736 X4.9032 Y3.0105
N3737 Y3.0186
N3738 X4.9008 Y3.0263
N3739 X4.8965 Y3.0332
N3740 X4.8904 Y3.0385
N3741 X4.8682 Y3.0529
N3742 G3 X4.8497 Y3.0454 I-0.0064 J-0.0107
N3743 G1 X4.8371 Y2.9971
N3744 G3 X4.8418 Y2.9839 I0.0121 J-0.0031
N3745 G1 X4.863 Y2.9695
N3746 X4.8681 Y2.9665
N3747 X4.8736 Y2.9645
N3748 X4.8795 Y2.9636
N3749 X4.8854
N3750 X4.8912 Y2.9644
N3751 X4.8969 Y2.966
N3752 X4.9024 Y2.9682
N3753 X4.9075 Y2.9711
N3754 X4.9123 Y2.9746
N3755 X4.9166 Y2.9786
N3756 X4.9178 Y2.9801
N3757 X4.9221 Y2.9867
N3758 X4.9244 Y2.9943
N3759 X4.9245 Y3.0022
N3760 X4.9226 Y3.0099
N3761 X4.9186 Y3.0167
N3762 X4.913 Y3.0223
N3763 X4.9015 Y3.0309
N3764 X4.8949 Y3.0355
N3765 X4.8904 Y3.0385
N3766 G3 X4.8719 Y3.0312 I-0.0065 J-0.0107
N3767 G1 X4.8583 Y2.983
N3768 G3 X4.8597 Y2.9731 I0.012 J-0.0034
N3769 X4.863 Y2.9695 I0.0107 J0.0065
N3770 G1 X4.8841 Y2.9552
N3771 X4.8892 Y2.9521
N3772 X4.8947 Y2.9501
N3773 X4.9005 Y2.949
N3774 X4.9064 Y2.9489
N3775 X4.9123 Y2.9496
N3776 X4.918 Y2.9511
N3777 X4.9235 Y2.9533
N3778 X4.9287 Y2.9562
N3779 X4.9334 Y2.9596
N3780 X4.9378 Y2.9637
N3781 X4.9385 Y2.9645
N3782 X4.9427 Y2.9711
N3783 X4.9451 Y2.9787
N3784 X4.9453 Y2.9866
N3785 X4.9433 Y2.9943
N3786 X4.9394 Y3.0012
N3787 X4.9337 Y3.0068
N3788 X4.913 Y3.0223
N3789 G3 X4.8939 Y3.0157 I-0.0071 J-0.0103
N3790 G1 X4.8796 Y2.9689
N3791 G3 X4.8841 Y2.9552 I0.0119 J-0.0037
N3792 G1 X4.8989 Y2.9437
N3793 X4.9029 Y2.9405
N3794 X4.9077 Y2.9371
N3795 X4.9131 Y2.9348
N3796 X4.9189 Y2.9335
N3797 X4.9248 Y2.9331
N3798 X4.9307 Y2.9335
N3799 X4.9365 Y2.9347
N3800 X4.9421 Y2.9366
N3801 X4.9473 Y2.9393
N3802 X4.9523 Y2.9425
N3803 X4.9568 Y2.9463
N3804 X4.9584 Y2.948
N3805 X4.9631 Y2.9547
N3806 X4.9657 Y2.9624
N3807 X4.9661 Y2.9705
N3808 X4.9643 Y2.9784
N3809 X4.9603 Y2.9855
N3810 X4.9545 Y2.9912
N3811 X4.9337 Y3.0068
N3812 G3 X4.9293 Y3.0087 I-0.0071 J-0.0103
N3813 X4.9148 Y3.0005 I-0.0027 J-0.0122
N3814 G1 X4.8991 Y2.9541
N3815 G3 X4.8999 Y2.9444 I0.0118 J-0.004
N3816 X4.9029 Y2.9405 I0.0111 J0.0057
N3817 G1 X4.9228 Y2.9249
N3818 X4.9276 Y2.9214
N3819 X4.933 Y2.919
N3820 X4.9387 Y2.9176
N3821 X4.9446 Y2.9171
N3822 X4.9505 Y2.9174
N3823 X4.9563 Y2.9186
N3824 X4.9619 Y2.9204
N3825 X4.9672 Y2.9229
N3826 X4.9722 Y2.9261
N3827 X4.9768 Y2.9298
N3828 X4.9809 Y2.934
N3829 X4.9811 Y2.9342
N3830 X4.9855 Y2.9422
N3831 X4.9872 Y2.951
N3832 X4.9862 Y2.96
N3833 X4.9824 Y2.9683
N3834 X4.9763 Y2.975
N3835 X4.9545 Y2.9912
N3836 G3 X4.9356 Y2.9852 I-0.0071 J-0.0103
N3837 G1 X4.9191 Y2.9386
N3838 G3 X4.9228 Y2.9249 I0.0118 J-0.0042
N3839 G1 X4.944 Y2.9081
N3840 X4.9488 Y2.9047
N3841 X4.9543 Y2.9025
N3842 X4.9601 Y2.9013
N3843 X4.966 Y2.9009
N3844 X4.9719 Y2.9013
N3845 X4.9777 Y2.9025
N3846 X4.9832 Y2.9045
N3847 X4.9886 Y2.907
N3848 X4.9935 Y2.9103
N3849 X4.9981 Y2.914
N3850 X4.9993 Y2.9152
N3851 X5.004 Y2.9216
N3852 X5.0068 Y2.929
N3853 X5.0075 Y2.9369
N3854 X5.0061 Y2.9447
N3855 X5.0026 Y2.9518
N3856 X4.9974 Y2.9577
N3857 X4.9934 Y2.9611
N3858 X4.9877 Y2.9659
N3859 X4.9763 Y2.975
N3860 G3 X4.9571 Y2.9691 I-0.0075 J-0.01
N3861 G1 X4.9403 Y2.9218
N3862 G3 X4.941 Y2.9119 I0.0118 J-0.0042
N3863 X4.944 Y2.9081 I0.0111 J0.0057
N3864 G1 X4.959 Y2.8963
N3865 X4.9643 Y2.8921
N3866 X4.9691 Y2.8886
N3867 X4.9745 Y2.8863
N3868 X4.9803 Y2.885
N3869 X4.9862 Y2.8846
N3870 X4.992 Y2.885
N3871 X4.9978 Y2.8862
N3872 X5.0034 Y2.888
N3873 X5.0087 Y2.8906
N3874 X5.0137 Y2.8938
N3875 X5.0183 Y2.8975
N3876 X5.0191 Y2.8983
N3877 X5.0238 Y2.9047
N3878 X5.0265 Y2.9121
N3879 X5.0273 Y2.92
N3880 X5.0258 Y2.9277
N3881 X5.0224 Y2.9348
N3882 X5.0171 Y2.9407
N3883 X4.9974 Y2.9577
N3884 G3 X4.9778 Y2.9523 I-0.0078 J-0.0098
N3885 G1 X4.9607 Y2.9059
N3886 G3 X4.9612 Y2.8959 I0.0117 J-0.0043
N3887 X4.9643 Y2.8921 I0.0111 J0.0057
N3888 G1 X4.9715 Y2.8863
N3889 X4.9762 Y2.8823
N3890 X4.9819 Y2.877
N3891 X4.9865 Y2.8733
N3892 X4.9917 Y2.8705
N3893 X4.9974 Y2.8688
N3894 X5.0032 Y2.868
N3895 X5.0091
N3896 X5.015 Y2.8688
N3897 X5.0207 Y2.8703
N3898 X5.0261 Y2.8726
N3899 X5.0313 Y2.8755
N3900 X5.0361 Y2.8789
N3901 X5.0377 Y2.8805
N3902 X5.0428 Y2.8868
N3903 X5.046 Y2.8943
N3904 X5.0469 Y2.9024
N3905 X5.0456 Y2.9104
N3906 X5.0421 Y2.9178
N3907 X5.0367 Y2.9239
N3908 X5.0171 Y2.9407
N3909 G3 X4.9978 Y2.9358 I-0.0078 J-0.0098
N3910 G1 X4.9791 Y2.8907
N3911 G3 X4.9819 Y2.877 I0.0116 J-0.0048
N3912 G1 X5.0014 Y2.8593
N3913 X5.0059 Y2.8555
N3914 X5.0112 Y2.8529
N3915 X5.0169 Y2.8513
N3916 X5.0228 Y2.8505
N3917 X5.0287 Y2.8506
N3918 X5.0345 Y2.8514
N3919 X5.0402 Y2.853
N3920 X5.0456 Y2.8553
N3921 X5.0508 Y2.8582
N3922 X5.0556 Y2.8616
N3923 X5.0575 Y2.8634
N3924 X5.0626 Y2.8697
N3925 X5.0658 Y2.8772
N3926 X5.0667 Y2.8853
N3927 X5.0655 Y2.8933
N3928 X5.062 Y2.9006
N3929 X5.0567 Y2.9068
N3930 X5.0367 Y2.9239
N3931 G3 X5.0174 Y2.9189 I-0.0078 J-0.0098
N3932 G1 X4.9986 Y2.8729
N3933 G3 X5.0014 Y2.8593 I0.0116 J-0.0047
N3934 G1 X5.0195 Y2.8427
N3935 X5.0241 Y2.8389
N3936 X5.0292 Y2.8361
N3937 X5.0348 Y2.8342
N3938 X5.0406 Y2.8332
N3939 X5.0465 Y2.8331
N3940 X5.0524 Y2.8337
N3941 X5.0582 Y2.8351
N3942 X5.0637 Y2.8371
N3943 X5.0689 Y2.8399
N3944 X5.0738 Y2.8431
N3945 X5.0759 Y2.8449
N3946 X5.0812 Y2.8509
N3947 X5.0846 Y2.8582
N3948 X5.0859 Y2.866
N3949 X5.0851 Y2.874
N3950 X5.0821 Y2.8814
N3951 X5.0772 Y2.8878
N3952 X5.067 Y2.8978
N3953 X5.0567 Y2.9068
N3954 G3 X5.0374 Y2.9022 I-0.0079 J-0.0097
N3955 G1 X5.0169 Y2.8568
N3956 G3 X5.0167 Y2.8467 I0.0114 J-0.0052
N3957 X5.0195 Y2.8427 I0.0115 J0.0049
N3958 G1 X5.0394 Y2.8245
N3959 X5.0439 Y2.8208
N3960 X5.0492 Y2.8181
N3961 X5.0549 Y2.8164
N3962 X5.0607 Y2.8155
N3963 X5.0666 Y2.8154
N3964 X5.0725 Y2.8162
N3965 X5.0782 Y2.8176
N3966 X5.0837 Y2.8198
N3967 X5.0889 Y2.8226
N3968 X5.0937 Y2.826
N3969 X5.0947 Y2.8269
N3970 X5.0999 Y2.8329
N3971 X5.1033 Y2.8401
N3972 X5.1045 Y2.8479
N3973 X5.1037 Y2.8558
N3974 X5.1007 Y2.8632
N3975 X5.0958 Y2.8695
N3976 X5.0772 Y2.8878
N3977 G3 X5.0574 Y2.8837 I-0.0084 J-0.0092
N3978 G1 X5.0368 Y2.8387
N3979 G3 X5.0366 Y2.8286 I0.0114 J-0.0052
N3980 X5.0394 Y2.8245 I0.0115 J0.0049
N3981 G1 X5.0472 Y2.8174
N3982 X5.0509 Y2.814
N3983 X5.0566 Y2.8082
N3984 X5.061 Y2.8043
N3985 X5.0661 Y2.8012
N3986 X5.0716 Y2.7991
N3987 X5.0774 Y2.7979
N3988 X5.0833 Y2.7975
N3989 X5.0891 Y2.798
N3990 X5.0949 Y2.7991
N3991 X5.1005 Y2.8011
N3992 X5.1058 Y2.8036
N3993 X5.1108 Y2.8068
N3994 X5.1124 Y2.8081
N3995 X5.1179 Y2.8141
N3996 X5.1215 Y2.8214
N3997 X5.1229 Y2.8293
N3998 X5.1221 Y2.8374
N3999 X5.1192 Y2.8449
N4000 X5.1142 Y2.8514
N4001 X5.0958 Y2.8695
N4002 G3 X5.0762 Y2.8658 I-0.0084 J-0.0092
N4003 G1 X5.0546 Y2.8223
N4004 G3 X5.0566 Y2.8082 I0.0112 J-0.0056
N4005 G1 X5.0624 Y2.8024
N4006 X5.0739 Y2.7903
N4007 X5.0781 Y2.7862
N4008 X5.0831 Y2.7831
N4009 X5.0886 Y2.7808
N4010 X5.0943 Y2.7795
N4011 X5.1002 Y2.779
N4012 X5.1061 Y2.7793
N4013 X5.1119 Y2.7803
N4014 X5.1176 Y2.7821
N4015 X5.123 Y2.7845
N4016 X5.128 Y2.7876
N4017 X5.1328 Y2.7913
N4018 X5.1383 Y2.7987
N4019 X5.1412 Y2.8075
N4020 X5.1413 Y2.8168
N4021 X5.1384 Y2.8255
N4022 X5.1329 Y2.833
N4023 X5.1142 Y2.8514
N4024 G3 X5.1101 Y2.8539 I-0.0084 J-0.0092
N4025 X5.0947 Y2.8479 I-0.0043 J-0.0117
N4026 G1 X5.0721 Y2.8043
N4027 G3 X5.0739 Y2.7903 I0.0111 J-0.0057
N4028 G1 X5.0917 Y2.7715
N4029 X5.0959 Y2.7674
N4030 X5.1009 Y2.7643
N4031 X5.1064 Y2.7621
N4032 X5.1121 Y2.7607
N4033 X5.118 Y2.7602
N4034 X5.1239 Y2.7604
N4035 X5.1297 Y2.7614
N4036 X5.1354 Y2.7631
N4037 X5.1408 Y2.7654
N4038 X5.1459 Y2.7685
N4039 X5.1507 Y2.772
N4040 X5.1562 Y2.7791
N4041 X5.1592 Y2.7875
N4042 X5.1596 Y2.7964
N4043 X5.1573 Y2.8051
N4044 X5.1524 Y2.8126
N4045 X5.1481 Y2.8174
N4046 X5.1428 Y2.8232
N4047 X5.1329 Y2.833
N4048 G3 X5.1288 Y2.8355 I-0.0085 J-0.0092
N4049 X5.1134 Y2.8297 I-0.0043 J-0.0117
N4050 G1 X5.09 Y2.7857
N4051 G3 X5.0892 Y2.7757 I0.011 J-0.0059
N4052 X5.0917 Y2.7715 I0.0118 J0.0041
N4053 G1 X5.1099 Y2.7523
N4054 X5.1141 Y2.7482
N4055 X5.1192 Y2.7451
N4056 X5.1247 Y2.743
N4057 X5.1304 Y2.7416
N4058 X5.1363 Y2.7411
N4059 X5.1422 Y2.7414
N4060 X5.148 Y2.7424
N4061 X5.1537 Y2.7441
N4062 X5.1591 Y2.7465
N4063 X5.1642 Y2.7495
N4064 X5.1654 Y2.7504
N4065 X5.1711 Y2.756
N4066 X5.1751 Y2.763
N4067 X5.177 Y2.7708
N4068 X5.1767 Y2.7788
N4069 X5.1742 Y2.7864
N4070 X5.1697 Y2.7931
N4071 X5.1524 Y2.8126
N4072 G3 X5.1484 Y2.8154 I-0.009 J-0.0086
N4073 X5.1325 Y2.81 I-0.0051 J-0.0114
N4074 G1 X5.1083 Y2.7666
N4075 G3 X5.1074 Y2.7565 I0.0109 J-0.0061
N4076 X5.1099 Y2.7523 I0.0118 J0.0041
N4077 G1 X5.1256 Y2.7357
N4078 X5.1278 Y2.7333
N4079 X5.132 Y2.7292
N4080 X5.137 Y2.726
N4081 X5.1425 Y2.7238
N4082 X5.1482 Y2.7225
N4083 X5.1541 Y2.722
N4084 X5.16 Y2.7223
N4085 X5.1658 Y2.7233
N4086 X5.1715 Y2.725
N4087 X5.1769 Y2.7274
N4088 X5.1819 Y2.7305
N4089 X5.1829 Y2.7312
N4090 X5.1885 Y2.7369
N4091 X5.1924 Y2.7439
N4092 X5.1942 Y2.7516
N4093 X5.1938 Y2.7596
N4094 X5.1914 Y2.7671
N4095 X5.1869 Y2.7737
N4096 X5.1697 Y2.7931
N4097 G3 X5.1497 Y2.7904 I-0.009 J-0.0086
N4098 G1 X5.1263 Y2.7474
N4099 G3 X5.1254 Y2.7376 I0.011 J-0.006
N4100 X5.1278 Y2.7333 I0.0119 J0.0038
N4101 G1 X5.1313 Y2.7294
N4102 X5.1346 Y2.7256
N4103 X5.1428 Y2.7156
N4104 X5.1468 Y2.7112
N4105 X5.1516 Y2.7077
N4106 X5.1569 Y2.7052
N4107 X5.1625 Y2.7035
N4108 X5.1684 Y2.7026
N4109 X5.1743 Y2.7025
N4110 X5.1802 Y2.7032
N4111 X5.1859 Y2.7046
N4112 X5.1914 Y2.7067
N4113 X5.1967 Y2.7094
N4114 X5.1989 Y2.7109
N4115 X5.2049 Y2.7165
N4116 X5.2092 Y2.7235
N4117 X5.2113 Y2.7314
N4118 X5.2112 Y2.7397
N4119 X5.2087 Y2.7475
N4120 X5.2042 Y2.7543
N4121 X5.1869 Y2.7737
N4122 G3 X5.1672 Y2.7715 I-0.009 J-0.0086
N4123 G1 X5.142 Y2.7296
N4124 G3 X5.1407 Y2.72 I0.0107 J-0.0064
N4125 X5.1428 Y2.7156 I0.0121 J0.0032
N4126 G1 X5.1592 Y2.6956
N4127 X5.1631 Y2.6912
N4128 X5.1679 Y2.6878
N4129 X5.1733 Y2.6852
N4130 X5.1789 Y2.6835
N4131 X5.1847 Y2.6826
N4132 X5.1906 Y2.6825
N4133 X5.1965 Y2.6831
N4134 X5.2023 Y2.6845
N4135 X5.2078 Y2.6865
N4136 X5.2131 Y2.6891
N4137 X5.2154 Y2.6907
N4138 X5.2214 Y2.696
N4139 X5.2258 Y2.7027
N4140 X5.2281 Y2.7104
N4141 X5.2282 Y2.7184
N4142 X5.2262 Y2.7262
N4143 X5.2221 Y2.7331
N4144 X5.2175 Y2.7389
N4145 X5.2143 Y2.7428
N4146 X5.2118 Y2.7458
N4147 X5.2042 Y2.7543
N4148 G3 X5.1845 Y2.7522 I-0.009 J-0.0086
N4149 G1 X5.1585 Y2.7097
N4150 G3 X5.157 Y2.7 I0.0107 J-0.0065
N4151 X5.1592 Y2.6956 I0.0121 J0.0032
N4152 G1 X5.1759 Y2.6751
N4153 X5.1799 Y2.6707
N4154 X5.1848 Y2.6674
N4155 X5.1901 Y2.6649
N4156 X5.1958 Y2.6632
N4157 X5.2016 Y2.6624
N4158 X5.2075 Y2.6623
N4159 X5.2134 Y2.6629
N4160 X5.2191 Y2.6643
N4161 X5.2247 Y2.6663
N4162 X5.23 Y2.669
N4163 X5.2314 Y2.6699
N4164 X5.2374 Y2.6752
N4165 X5.2417 Y2.6819
N4166 X5.2441 Y2.6895
N4167 X5.2443 Y2.6975
N4168 X5.2424 Y2.7052
N4169 X5.2384 Y2.7121
N4170 X5.2221 Y2.7331
N4171 G3 X5.2183 Y2.7361 I-0.0095 J-0.0081
N4172 X5.202 Y2.7317 I-0.0057 J-0.0111
N4173 G1 X5.1753 Y2.6894
N4174 G3 X5.1738 Y2.6795 I0.0106 J-0.0067
N4175 X5.1759 Y2.6751 I0.0121 J0.0032
N4176 G1 X5.1921 Y2.6554
N4177 X5.196 Y2.6511
N4178 X5.2008 Y2.6476
N4179 X5.2061 Y2.6449
N4180 X5.2117 Y2.6432
N4181 X5.2175 Y2.6422
N4182 X5.2234 Y2.642
N4183 X5.2293 Y2.6426
N4184 X5.2351 Y2.6439
N4185 X5.2406 Y2.6459
N4186 X5.2459 Y2.6485
N4187 X5.2472 Y2.6494
N4188 X5.2532 Y2.6546
N4189 X5.2576 Y2.6613
N4190 X5.26 Y2.6689
N4191 X5.2602 Y2.6769
N4192 X5.2582 Y2.6847
N4193 X5.2543 Y2.6916
N4194 X5.2384 Y2.7121
N4195 G3 X5.2346 Y2.7152 I-0.0096 J-0.008
N4196 X5.2183 Y2.7109 I-0.0058 J-0.0111
N4197 G1 X5.1915 Y2.6698
N4198 G3 X5.1899 Y2.6598 I0.0105 J-0.0068
N4199 X5.1921 Y2.6554 I0.0121 J0.0032
N4200 G1 X5.1957 Y2.651
N4201 X5.2003 Y2.6453
N4202 X5.2046 Y2.6395
N4203 X5.2068 Y2.6363
N4204 X5.2105 Y2.6317
N4205 X5.215 Y2.628
N4206 X5.2202 Y2.6251
N4207 X5.2258 Y2.6231
N4208 X5.2315 Y2.6219
N4209 X5.2374 Y2.6215
N4210 X5.2433 Y2.6218
N4211 X5.2491 Y2.6229
N4212 X5.2548 Y2.6247
N4213 X5.2601 Y2.6271
N4214 X5.2622 Y2.6283
N4215 X5.2685 Y2.6335
N4216 X5.2731 Y2.6402
N4217 X5.2757 Y2.648
N4218 X5.2761 Y2.6561
N4219 X5.2742 Y2.664
N4220 X5.2701 Y2.6711
N4221 X5.2543 Y2.6916
N4222 G3 X5.2343 Y2.6906 I-0.0096 J-0.008
N4223 G1 X5.2069 Y2.6502
N4224 G3 X5.2068 Y2.6363 I0.0103 J-0.007
N4225 G1 X5.2208 Y2.6166
N4226 X5.2244 Y2.6119
N4227 X5.2288 Y2.608
N4228 X5.2338 Y2.6049
N4229 X5.2393 Y2.6026
N4230 X5.245 Y2.6012
N4231 X5.2509 Y2.6006
N4232 X5.2568 Y2.6007
N4233 X5.2627 Y2.6015
N4234 X5.2684 Y2.603
N4235 X5.2738 Y2.6052
N4236 X5.279 Y2.6081
N4237 X5.2794 Y2.6083
N4238 X5.2859 Y2.6146
N4239 X5.2902 Y2.6226
N4240 X5.2919 Y2.6316
N4241 X5.2906 Y2.6406
N4242 X5.2867 Y2.6488
N4243 X5.2807 Y2.6572
N4244 X5.2768 Y2.6625
N4245 X5.2701 Y2.6711
N4246 G3 X5.2504 Y2.6705 I-0.0096 J-0.008
N4247 G1 X5.2212 Y2.6308
